!!!!SEGMENT: pl-wumfc--n18053--006_noskowski-zygmunt--livia-quintilla-akt-pierwszy-scena-i.krn
!!!cenid: 18xx:4222
!!!COM: Noskowski, Zygmunt
!!!COM-rismID: pe106604
!!!CDT: 1846/05/02-1909/07/23
!!!CNT: Polish
!!!OPR: Livia Quintilla
!!!OTL: Akt pierwszy - Scena I
!!!OMV: 006
!!!PDT: 1898
!!!AGN: Secular; Opera
!!!SMS-siglum: PL-Wumfc
!!!SMS-shelfmark: N18053
!!!SMS-shelfwork: 001-006 M
!!!SMS-variant:
!!!SMS-altvar:
!!!NIFC-rismSourceID: 1001161204
!!!NIFC-rismChildID: 1001161204
!!!NIFC-islandoraID: pl-wumfc:1491
!!!URL-pdf-islandora: https://repozytorium.nifc.pl/islandora/object/pl-wumfc:1491/datastream/PDF/view
!!!URL-scan: https://polish.musicsources.pl/pl/lokalizacje/galeria/druki-muzyczne/11843/21 @EN{Scan on Polish Music Sources Website} @PL{Skany w portalu Dziedzictwo Muzyki Polskiej w otwartym dostępie}
!!!ONB-nifc: Skany 0021-0023
!!!OMD: Moderato
!!!AIN: 1 mezzo 2 piano 1 soprn
!!!key:
**kern	**kern	**dynam	**kern	**text	**dynam	**kern	**text	**dynam
*part4	*part3	*part3	*part2	*part2	*part2	*part1	*part1	*part1
*staff4	*staff3	*	*staff2	*staff2	*	*staff1	*staff1	*
*I"PIANO.	*I"PIANO.	*	*I"Selene.	*	*	*I"Livia.	*	*
*	*	*	*I'S.	*	*	*I'Liv.	*	*
*Ipiano	*Ipiano	*	*Imezzo	*	*	*Isoprn	*	*
*ICklav	*ICklav	*	*ICvox	*	*	*ICvox	*	*
*IGacomp	*IGacomp	*	*IGsolo	*	*	*IGsolo	*	*
*clefF4	*clefG2	*	*clefG2	*	*	*clefG2	*	*
*k[b-e-a-]	*k[b-e-a-]	*	*k[b-e-a-]	*	*	*k[b-e-a-]	*	*
*B-:	*B-:	*	*B-:	*	*	*B-:	*	*
*M4/4	*M4/4	*	*M4/4	*	*	*M4/4	*	*
*met(c)	*met(c)	*	*met(c)	*	*	*met(c)	*	*
=1	=1	=1	=1	=1	=1	=1	=1	=1
!	!LO:TX:a:B:t=Moderato.	!LO:DY:rj	!	!	!	!	!	!
8qc/	8qcc/	f	.	.	.	.	.	.
2c^^\	2cc^^\	.	1ryy	.	.	1ryy	.	.
2c^^\	2cc^^\	.	.	.	.	.	.	.
=2	=2	=2	=2	=2	=2	=2	=2	=2
*	*^	*	*	*	*	*	*	*
4g 4e- 4c\	(2gg/	1gg 1ee- 1cc	.	1ryy	.	.	1ryy	.	.
4r	.	.	.	.	.	.	.	.	.
2r	2aa-X/	.	>	.	.	.	.	.	.
*	*v	*v	*	*	*	*	*	*	*
*clefG2	*	*	*	*	*	*	*	*
=3	=3	=3	=3	=3	=3	=3	=3	=3
1gg 1ee- 1cc	2bb-\	.	1ryy	.	.	1ryy	.	.
*kcancel	*kcancel	*	*kcancel	*	*	*kcancel	*	*
.	2bbn\)	]	.	.	.	.	.	.
=4||	=4||	=4||	=4||	=4||	=4||	=4||	=4||	=4||
!!!OMD: Andante.
*k[b-e-]	*k[b-e-]	*	*k[b-e-]	*	*	*k[b-e-]	*	*
*M12/8	*M12/8	*	*M12/8	*	*	*M12/8	*	*
1.aa 1.ee- 1.cc 1.f	(8.ccc\L	p	1.ryy	.	.	1.ryy	.	.
.	16ddd\L	.	.	.	.	.	.	.
.	16fff\	.	.	.	.	.	.	.
.	16eee-\JJ	.	.	.	.	.	.	.
.	16ddd\LL	.	.	.	.	.	.	.
.	16ccc\	.	.	.	.	.	.	.
.	16ggg\	.	.	.	.	.	.	.
.	16eee-\	.	.	.	.	.	.	.
.	16ddd\	.	.	.	.	.	.	.
.	16eee-\JJ	.	.	.	.	.	.	.
.	2.ccc\)	.	.	.	.	.	.	.
=5	=5	=5	=5	=5	=5	=5	=5	=5
[2.ee- [2.cc [2.b- [2.g [2.f\	(8.eee-L 8.bb- 8.gg\	.	1.ryy	.	.	1.ryy	.	.
.	16fff\L	.	.	.	.	.	.	.
.	16ggg\	.	.	.	.	.	.	.
.	16eee-\JJ	.	.	.	.	.	.	.
.	16bbb-\LL	.	.	.	.	.	.	.
.	16ggg\	.	.	.	.	.	.	.
.	16fff\	.	.	.	.	.	.	.
.	16ggg\	.	.	.	.	.	.	.
.	16ccc\	.	.	.	.	.	.	.
.	16ddd\JJ	.	.	.	.	.	.	.
4.ee-_ 4.cc_ 4.b-_ 4.g_ 4.f\_	[4.eee-\)	.	.	.	.	.	.	.
4ee-] 4cc] 4b-] 4g] 4f\]	4eee-\]	.	.	.	.	.	.	.
8r	8r	.	.	.	.	.	.	.
!!LO:LB:g=original
=6	=6	=6	=6	=6	=6	=6	=6	=6
!	!	!LO:DY:rj	!	!	!	!	!	!
!	!	!LO:HP:a	!	!	!	!	!	!
1.r	(8G/L	mf <	1.ryy	.	.	1.ryy	.	.
.	8A/	.	.	.	.	.	.	.
.	8B-/J	.	.	.	.	.	.	.
.	4f/	[	.	.	.	.	.	.
.	8e-/)	.	.	.	.	.	.	.
.	(<8c/L	.	.	.	.	.	.	.
.	8d/	.	.	.	.	.	.	.
.	8e-/J	.	.	.	.	.	.	.
.	[4.dd\)	.	.	.	.	.	.	.
*clefF4	*	*	*	*	*	*	*	*
=7	=7	=7	=7	=7	=7	=7	=7	=7
*ped	*	*	*	*	*	*	*	*
4B-: 4G: 4E-: 4C: 4FF:\	(4dd\]	.	1.ryy	.	.	1.ryy	.	.
8r	8cc\	>	.	.	.	.	.	.
4r	[4.b-\	.	.	.	.	.	.	.
8r	.	.	.	.	.	.	.	.
[4.c [4.B- [4.G [4.E-\	8b-/L]	]	.	.	.	.	.	.
.	8f#X/	.	.	.	.	.	.	.
.	8a/J	.	.	.	.	.	.	.
4c] 4B-] 4G] 4E-\]	[4.g/)	.	.	.	.	.	.	.
8r	.	.	.	.	.	.	.	.
=8	=8	=8	=8	=8	=8	=8	=8	=8
[4.A [4.E- [4.C [4.FF/	4.g/]	.	1.ryy	.	.	1.ryy	.	.
4A] 4E-] 4C] 4FF/]	(4c/	.	.	.	.	.	.	.
8r	8d/)	.	.	.	.	.	.	.
.	(16qqd/LL	.	.	.	.	.	.	.
.	16qqf/JJ	.	.	.	.	.	.	.
2r	(4e-/)	.	.	.	.	.	.	.
!	!	!LO:HP:a	!	!	!	!	!	!
.	8d/	<	.	.	.	.	.	.
.	8Bn/L	.	.	.	.	.	.	.
8r	8c/	.	.	.	.	.	.	.
8r	8g/J)	[	.	.	.	.	.	.
=9	=9	=9	=9	=9	=9	=9	=9	=9
!	!LO:TX:a:t=(Livia wchodzi wsparta na ramieniu\nSelene)	!LO:HP:a	!	!	!	!	!	!
8r	8f/L	>	1.ryy	.	.	1.ryy	.	.
8cL 8A\	8f 8e-/	.	.	.	.	.	.	.
8cJ 8G\	8gJ 8e-/	.	.	.	.	.	.	.
8cL 8F\	8aL 8e-/	]	.	.	.	.	.	.
8g> 8e->\	8cc 8a/	.	.	.	.	.	.	.
8f>J 8d>\	8ddJ 8a/	.	.	.	.	.	.	.
8g>L 8c>\	8ee-L 8b-/	.	.	.	.	.	.	.
!LO:TX:b:i:t=rall.	!	!	!	!	!	!	!	!
8g> 8f>\	8dd 8bn/	.	.	.	.	.	.	.
8g>J 8e->\	8ee-J 8cc/	.	.	.	.	.	.	.
8g>L 8e-> 8c 8B-X\	8ggL 8ee- 8cc/	.	.	.	.	.	.	.
8g> 8e-> 8c 8G\	8bb-X 8gg 8ee- 8cc/	.	.	.	.	.	.	.
8a>J 8e-> 8c 8F\	8cccJ 8aa 8ee- 8cc/	.	.	.	.	.	.	.
!!LO:LB:g=original
=10||	=10||	=10||	=10||	=10||	=10||	=10||	=10||	=10||
!!!OMD: Molto cantabile.
8BB-L 8BBB-\	8dddL 8bb- 8ff 8dd\	p	1.ryy	.	.	1.ryy	.	.
8f 8c\	8ccc 8ff 8cc\	.	.	.	.	.	.	.
8fJ 8B-\	8bb-J 8ff 8dd 8b-\	.	.	.	.	.	.	.
8fL 8A\	8aaL 8ff 8dd 8a\	.	.	.	.	.	.	.
8f 8G\	8gg 8ff 8dd 8g\	.	.	.	.	.	.	.
8fJ 8A\	8aaJ 8ff 8dd 8a\	.	.	.	.	.	.	.
8BB-L 8BBB-/	(16bb-LL 16ff 16dd 16b-\	.	.	.	.	.	.	.
.	16cccJJ 16cc\)	.	.	.	.	.	.	.
8d 8B-/	[4bb- [4b-\	.	.	.	.	.	.	.
8dJ 8B- 8G/	.	.	.	.	.	.	.	.
4d 4B- 4F\	8bb-]L 8b-\]	.	.	.	.	.	.	.
.	8ccc 8ff 8cc\	.	.	.	.	.	.	.
8r	8dddJ 8ff 8dd\	.	.	.	.	.	.	.
=11	=11	=11	=11	=11	=11	=11	=11	=11
8BB- 8BBB-/	8eee-L 8gg-X 8ee-\	.	1.ryy	.	.	1.ryy	.	.
*clefG2	*	*	*	*	*	*	*	*
8b-L 8f/	8fff 8bb- 8ff\	<	.	.	.	.	.	.
8b-J 8g-X/	8gggJ 8bb- 8gg-X\	.	.	.	.	.	.	.
8b-L 8f/	8fffL 8ddd 8bb- 8ff\	.	.	.	.	.	.	.
8b- 8d/	8ddd 8bb- 8ff 8dd\	[	.	.	.	.	.	.
8b-J 8B-/	8bb-J 8ff 8dd\	.	.	.	.	.	.	.
*clefF4	*	*	*	*	*	*	*	*
8GGnL 8GGGn/	(16dddLL 16bb- 16ggn 16dd\	.	.	.	.	.	.	.
.	16eee-JJ 16ee-\)	.	.	.	.	.	.	.
8B-J 8G 8D/	[4ddd [4dd\	>	.	.	.	.	.	.
16GGLL 16GGG/	.	.	.	.	.	.	.	.
16AAJJ 16AAA/	.	.	.	.	.	.	.	.
8BB-L 8BBB-/	8ddd]L 8dd\]	.	.	.	.	.	.	.
8B- 8BB-/	8ddd 8bb- 8ff 8dd\	.	.	.	.	.	.	.
8GJ 8GG/	8eee-J 8ccc 8bb- 8ee-\	]	.	.	.	.	.	.
=12	=12	=12	=12	=12	=12	=12	=12	=12
*	*8va	*	*	*	*	*	*	*
8FL 8FF\	8fffL 8ccc 8aa-X 8ff\	<	1.ryy	.	.	1.ryy	.	.
8g 8c 8A-X\	8ggg 8ccc 8aa- 8gg\	[	.	.	.	.	.	.
8fJ 8c 8A-\	8fffJ 8ccc 8aa- 8ff\	.	.	.	.	.	.	.
8D-XL 8DD-X\	8aaa-XL 8fff-X 8ddd-X 8aa-X\	mf	.	.	.	.	.	.
8g 8d-X 8A-\	8ggg 8ddd- 8gg\	.	.	.	.	.	.	.
8fJ 8d- 8A-\	8fff-J 8ddd- 8ff\	.	.	.	.	.	.	.
8AA-XL 8AAA-X/	(16eee-LL 16ccc 16aa- 16ee-\	.	.	.	.	.	.	.
.	16fff-JJ 16ff\	.	.	.	.	.	.	.
8c 8A- 8E-/	[4eee- [4ee-/)	.	.	.	.	.	.	.
8e-J 8c 8A-/	.	.	.	.	.	.	.	.
8CL 8CC\	8eee-]L 8ee-\]	>	.	.	.	.	.	.
8c 8G 8E-\	8ggg 8gg\	]	.	.	.	.	.	.
8e-J 8c 8G\	16fff-L 16ff\	.	.	.	.	.	.	.
.	16eee-JJ 16ee-\	.	.	.	.	.	.	.
*	*X8va	*	*	*	*	*	*	*
!!LO:LB:g=original
=13	=13	=13	=13	=13	=13	=13	=13	=13
8DnL 8DDn/	8dddnL 8aan 8ff 8ddn\	.	1.ryy	.	.	1.r	.	.
8G 8GG/	8bb- 8gg 8dd 8b-\	.	.	.	.	.	.	.
8FJ 8FF/	8dddJ 8bb- 8gg 8dd\	>	.	.	.	.	.	.
8E-L 8EE-/	8dddL 8bb- 8gg 8dd\	.	.	.	.	.	.	.
8B- 8G 8E-/	8gg 8dd 8g\	.	.	.	.	.	.	.
8CJ 8CC/	8bb-J 8ee- 8cc 8b-\	.	.	.	.	.	.	.
8FL 8FF/	(16aaLL 16ff 16ee- 16a\	]	.	.	.	.	.	.
.	16cccJJ 16cc\)	.	.	.	.	.	.	.
8BB- 8BBB-/	[4bb- [4ff [4dd [4b-\	.	.	.	.	.	.	.
8dJ 8B- 8F/	.	.	.	.	.	.	.	.
8gL 8d 8B-\	4bb-] 4ff] 4dd] 4b-\]	.	.	.	.	.	.	.
!	!	!	!	!	!	!LO:TX:a:B:t=Livia.	!	!
8f 8d 8B-\	.	.	.	.	.	.	.	.
8dJ 8B- 8F\	8ff 8dd 8f\	.	.	.	.	.	.	.
=14	=14	=14	=14	=14	=14	=14	=14	=14
!	!	!	!	!	!	!	!	!LO:DY:a
8BB-L 8BBB-\	8dddL 8ff 8dd\	p	1.ryy	.	.	2.ff\	Śni-	p <
8f 8c\	8ccc 8ff 8cc\	.	.	.	.	.	.	.
8fJ 8B-\	8bb-J 8ff 8dd 8b-\	.	.	.	.	.	.	.
8fL 8A\	8aaL 8ff 8dd 8a\	.	.	.	.	.	.	.
8f 8G\	8gg 8ff 8dd 8g\	.	.	.	.	.	.	.
8fJ 8A\	8aaJ 8ff 8dd 8a\	.	.	.	.	.	.	[
8BB-L 8BBB-/	16bb-LL 16ff 16dd 16b-\	.	.	.	.	[4.b-\	-łam	>
.	16cccJJ 16cc\	.	.	.	.	.	.	.
8d 8B-/	[4bb- [4b-\	.	.	.	.	.	.	.
8dJ 8B- 8G/	.	.	.	.	.	.	.	.
8dL 8B- 8F\	8bb-]L 8b-\]	.	.	.	.	8b-\]	.	]
8d 8B- 8D\	8ccc 8ff 8cc\	.	.	.	.	8r	.	.
8B-J 8BB-\	8dddJ 8bb- 8ff 8dd\	.	.	.	.	8b-\	a	.
=15	=15	=15	=15	=15	=15	=15	=15	=15
*	*8va	*	*	*	*	*	*	*
8BB- 8BBB-/	8eee-L 8gg-X 8ee-\	.	1.ryy	.	.	(8ee-\L	mo-	.
*clefG2	*	*	*	*	*	*	*	*
8b-L 8f/	8fff 8bb- 8ff\	.	.	.	.	8ff\J)	.	.
8b-J 8g-X/	8ggg-XJ 8bb- 8gg-\	.	.	.	.	8gg-X\	-je	.
8b-L 8f/	8fffL 8ddd 8bb- 8ff/	.	.	.	.	8ff\	sen-	.
8b- 8d/	8ddd 8bb- 8ff 8dd/	.	.	.	.	8dd\	-ne	.
8b-J 8B-/	8bb-J 8ff 8dd/	.	.	.	.	8b-\	ma-	.
*clefF4	*	*	*	*	*	*	*	*
8GnL 8GGn\	(16dddLL 16bb- 16ggn 16dd/	.	.	.	.	(16dd\LL	-rze-	.
.	16eee-JJ 16ee-/)	.	.	.	.	16ee-\JJ)	.	.
8B-J 8G\	[4ddd [4dd/	.	.	.	.	[4dd\	-nie	.
16GGLL 16GGG/	.	.	.	.	.	.	.	.
16AAJJ 16AAA/	.	.	.	.	.	.	.	.
8BB-L 8BBB-/	8ddd]L 8dd/]	.	.	.	.	8dd\]	.	.
8D 8DD/	8bb- 8ff 8b-/	.	.	.	.	8r	.	.
8BB-J 8BBB-/	8dddJ 8bb- 8ff 8dd/	.	.	.	.	8dd\	Prze-	.
!!LO:LB:g=original
=16	=16	=16	=16	=16	=16	=16	=16	=16
8FFL 8FFF/	4fff 4ccc 4aa-X 4ff\	.	1.ryy	.	.	4ff\	-rwa-	.
8A-X 8F 8C/	.	.	.	.	.	.	.	.
*	*X8va	*	*	*	*	*	*	*
8cJ 8A- 8F/	8aa-X 8ff 8cc\	.	.	.	.	(16a-X/LL	-ły	.
.	.	.	.	.	.	16b-/JJ)	.	.
8AA-XL 8AAA-X/	4ccc 4ee- 4cc\	.	.	.	.	(16cc\LL	pie-	.
.	.	.	.	.	.	16dd\JJ)	.	.
8c 8A-X 8E-/	.	.	.	.	.	[4ee-\	-śni	.
8e-J 8c 8A-/	8ccc 8cc\	.	.	.	.	.	.	.
8CL 8CC\	4eee- 4ee-\	mf	.	.	.	8ee-\]	.	.
8c 8G 8E-\	.	.	.	.	.	8r	.	.
8e-J 8c 8G\	(16ggLL 16g\	.	.	.	.	8r	.	.
.	16aanJJ 16an\	.	.	.	.	.	.	.
8GGL 8GGG/	16bb-LL 16b-\	.	.	.	.	4r	.	.
.	16cccJ 16cc\)	.	.	.	.	.	.	.
8B- 8G 8D/	8ddd 8dd\	.	.	.	.	.	.	.
8dJ 8B- 8G/	8bb-J 8b-\	.	.	.	.	8r	.	.
=17	=17	=17	=17	=17	=17	=17	=17	=17
*	*^	*	*	*	*	*	*	*
8E-L 8EE-\	8dddL 8bb- 8gg 8dd\	2.ryy	.	1.ryy	.	.	2.r	.	.
8d 8G 8E-\	8bb- 8dd 8b-\	.	.	.	.	.	.	.	.
8E-J 8EE-\	8aaJ 8dd 8a\	.	.	.	.	.	.	.	.
4BB- 4BBB-/	8ggL 8ee- 8cc 8g\	.	.	.	.	.	.	.	.
.	8ee- 8e-\	.	.	.	.	.	.	.	.
8GG 8GGG/	8bb-J 8ee- 8cc 8b-\	.	.	.	.	.	.	.	.
[4.FF [4.FFF/	4.ccc/	8bb-L 8ee- 8cc\	>	.	.	.	4r	.	.
.	.	8aa 8ee- 8cc\	.	.	.	.	.	.	.
.	.	8ggJ 8ee- 8cc\	]	.	.	.	8r	.	.
4FF] 4FFF/]	8aaL 8ee- 8cc\	4.ryy	.	.	.	.	4r	.	.
.	8ff 8cc 8a\	.	.	.	.	.	.	.	.
8r	8f\J	.	.	.	.	.	8f/	u-	.
*	*v	*v	*	*	*	*	*	*	*
=18	=18	=18	=18	=18	=18	=18	=18	=18
4BB- 4BBB-/	8gL 8f 8d 8B-/	p	1.ryy	.	.	(8g/L	-nio-	.
.	8a 8f 8d 8B-/	.	.	.	.	8a/J)	.	.
8r	8b-J 8f 8d 8B-/	.	.	.	.	8b-\	-sły	.
*	*tremolo	*	*	*	*	*	*	*
8r	8aL 8f 8d 8B-/	.	.	.	.	8ff\	du-	.
8BB-/L	8a 8f 8d 8B-/	.	.	.	.	4a/	-szę	.
8BBB-/J	8aJ 8f 8d 8B-/	.	.	.	.	.	.	.
4BB-/	8gL 8e- 8c 8B-/	.	.	.	.	8b-\	w nie-	.
.	8g 8e- 8c 8B-/	.	.	.	.	8cc\	-bios	.
8r	8gJ 8e- 8c 8B-/	.	.	.	.	8ee-\	prze-	.
4r	8aL 8e- 8c 8B-/	.	.	.	.	8gg\	-strze-	.
.	8a 8e- 8c 8B-/	.	.	.	.	[4ff\	-nie	.
8r	8aJ 8e- 8c 8B-/	.	.	.	.	.	.	.
*	*Xtremolo	*	*	*	*	*	*	*
!!LO:LB:g=original
=19	=19	=19	=19	=19	=19	=19	=19	=19
8BB-L 8BBB-/	8b-L 8f 8d 8B-/	<	1.ryy	.	.	8ff\]	.	.
8C 8CC/	8b- 8f 8d 8B-/	.	.	.	.	8r	.	.
8DJ 8DD/	8aJ 8f 8d 8A/	[	.	.	.	8ff\	i	.
8A 8AA\	8aL 8en 8c#X/	.	.	.	.	4een\	słod-	.
4G^> 4GG/	8bn 8e 8c#/	.	.	.	.	.	.	.
.	8cc#XJ 8a 8e/	.	.	.	.	8cc#X\	-kie	.
8GL 8GG/	8ddL 8a 8d/	.	.	.	.	4dd\	da-	.
8F 8FF/	8dd 8a 8d/	.	.	.	.	.	.	.
8DJ 8DD/	8aJ 8f 8d/	.	.	.	.	8a/	-ły	.
4.AA 4.AAA/	8aL 8g 8c#X/	.	.	.	.	8ff\	jej	.
.	8b 8g 8d/	.	.	.	.	8r	.	.
.	8cc#J 8g 8e/	.	.	.	.	16ee\	za-	.
.	.	.	.	.	.	16cc#\	-pom-	.
=20	=20	=20	=20	=20	=20	=20	=20	=20
*	*tremolo	*	*	*	*	*	*	*
8BB-L 8BBB-/	8ddL 8f 8d/	.	1.ryy	.	.	([4.dd\	-nie-	.
8AA 8AAA/	8dd 8f 8d/	.	.	.	.	.	.	.
8EnJ 8EEn/	8ddJ 8f 8d/	.	.	.	.	.	.	.
*	*Xtremolo	*	*	*	*	*	*	*
[4.D [4.DD/	8ddL 8f 8d/	.	.	.	.	4dd\]	.	.
.	8f 8d/	.	.	.	.	.	.	.
.	8gJ 8f 8d/	.	.	.	.	8b-\)	.	.
4D] 4DD/]	8aL 8f 8d/	>	.	.	.	4a/	-nie,	.
.	8g 8d 8A/	.	.	.	.	.	.	.
8A 8AA\	8fJ 8d/	.	.	.	.	8r	.	.
4F 4FF/	8dL 8A/	.	.	.	.	4r	.	.
.	8a 8f 8d/	]	.	.	.	.	.	.
!	!	!	!	!	!	!	!	!LO:DY:a
8G 8GG/	8aJ 8f 8d/	.	.	.	.	8a/	Nie-	p
=21	=21	=21	=21	=21	=21	=21	=21	=21
4.A 4.AA\	8ccnL 8en 8cn/	.	1.ryy	.	.	4.ccn\	-pew-	.
.	8g#X 8e 8c/	.	.	.	.	.	.	.
.	8aJ 8e 8c/	.	.	.	.	.	.	.
4.G 4.GG/	8aL 8e 8c/	<	.	.	.	8a/	-ność,	.
.	8cc 8a 8e 8c/	.	.	.	.	8r	.	.
!	!	!	!	!	!	!	!	!LO:DY:a
.	8eenJ 8cc 8a 8e/	.	.	.	.	8een\	czy	mf
[4.F#X [4.FF#X/	8eeL 8cc 8a 8e/	[	.	.	.	4.ee\	śni,	.
.	8bn 8a 8e/	>	.	.	.	.	.	.
.	8ccJ 8a 8e/	.	.	.	.	.	.	.
8F#] 8FF#/]	8aL 8e 8c/	.	.	.	.	8ee\	.	.
8r	8ee 8a 8e/	]	.	.	.	8r	.	.
!	!	!	!	!	!	!	!	!LO:DY:a
8F# 8FF#/	8ccJ 8a 8e/	p	.	.	.	8cc\	czy	p
!!LO:PB:g=original
=22	=22	=22	=22	=22	=22	=22	=22	=22
.	.	.	.	.	.	(16qqdd/LL	.	.
.	.	.	.	.	.	16qqeen/JJ	.	.
4.G 4.GG/	8bnL 8f 8d/	<	1.ryy	.	.	4.dd\)	nie-	.
.	8a 8f 8d/	.	.	.	.	.	.	.
.	8bJ 8f 8d/	.	.	.	.	.	.	.
8CL 8CC/	8cc 8en 8c/	.	.	.	.	4cc\	-śni.	.
8G 8En 8C/	8r	[	.	.	.	.	.	.
8GJ 8E 8C/	8ggg 8gg\	mf	.	.	.	8r	.	.
!	!	!	!	!	!	!LO:N:vis=2	!	!
8CL 8CC\	4ggg 4gg\	.	.	.	.	2.r	.	.
8en 8c 8G\	.	.	.	.	.	.	.	.
8eJ 8c 8G\	(16aaLL 16a\	.	.	.	.	.	.	.
.	16bbnJJ 16bn\	.	.	.	.	.	.	.
8eL 8c 8G/	8cccL 8cc\)	.	.	.	.	.	.	.
8e 8c 8G/	8ddd 8dd\	.	.	.	.	.	.	.
8BBnJ 8BBBn/	8eeenJ 8gg 8een\	.	.	.	.	.	.	.
=23	=23	=23	=23	=23	=23	=23	=23	=23
8AAL 8AAA/	(4eeen 4gg 4een\	>	1.ryy	.	.	1.r	.	.
8c 8G 8En/	.	.	.	.	.	.	.	.
8e-J 8c 8G/	8ccc 8ee 8cc\)	.	.	.	.	.	.	.
8GGL 8GGG/	8r	]	.	.	.	.	.	.
!	!LO:N:vis=16	!	!	!	!	!	!	!
8c 8G 8E/	8bbnL 8bn\	.	.	.	.	.	.	.
!	!LO:N:vis=16	!	!	!	!	!	!	!
8e-J 8c 8G/	8cccJ 8cc\	.	.	.	.	.	.	.
8FFL 8FFF/	(4eee-X 4gg 4ee-X\	p	.	.	.	.	.	.
8c 8G 8E-X/	.	.	.	.	.	.	.	.
8e-XJ 8c 8G/	8gg 8g\)	.	.	.	.	.	.	.
8FFL 8FFF/	8aaL 8ee- 8a\	>	.	.	.	.	.	.
8e- 8B- 8G/	8bb 8ee- 8b\	.	.	.	.	.	.	.
8e-J 8A 8F/	8cccJ 8ee- 8cc\	]	.	.	.	.	.	.
=24	=24	=24	=24	=24	=24	=24	=24	=24
!	!	!	!	!	!	!	!	!LO:DY:a
8BB-L 8BBB-\	8dddL 8ff 8dd\	pp	1.ryy	.	.	2.ff\	Śni-	p
8f 8c\	8ccc 8ff 8cc\	.	.	.	.	.	.	.
8fJ 8B-\	8bb-J 8ff 8dd 8b-\	.	.	.	.	.	.	.
8fL 8A\	8aaL 8ff 8dd 8a\	.	.	.	.	.	.	.
8f 8G\	8gg 8ff 8dd 8g\	.	.	.	.	.	.	.
8fJ 8A\	8aaJ 8ff 8dd 8a\	.	.	.	.	.	.	.
8BB-L 8BBB-/	(16bb-LL 16ff 16dd 16b-\	.	.	.	.	[4.b-\	-łam,	.
.	16cccJJ 16cc\)	.	.	.	.	.	.	.
8d 8B-/	[4bb- [4b-\	<	.	.	.	.	.	.
8dJ 8B- 8G/	.	.	.	.	.	.	.	.
8dL 8B- 8F\	8bb-]L 8b-\]	.	.	.	.	8b-\]	.	.
8d 8B- 8D\	8ccc 8ff 8cc\	.	.	.	.	8r	.	.
8B-J 8BB-\	8dddJ 8ff 8dd\	[	.	.	.	8b-\	a	.
!!LO:LB:g=original
=25	=25	=25	=25	=25	=25	=25	=25	=25
*	*8va	*	*	*	*	*	*	*
8BB- 8BBB-/	8eee-L 8gg-X 8ee-\	p <	1.ryy	.	.	8ee-\	kwia-	.
*clefG2	*	*	*	*	*	*	*	*
8b-L 8f/	8fff 8bb- 8ff\	.	.	.	.	8ff\	-tów	.
8b-J 8g-X/	8ggg-XJ 8bb- 8gg-\	[	.	.	.	8gg-X\	u-	.
8b-L 8f/	8fffL 8ddd 8bb- 8ff/	>	.	.	.	(8ff\L	-lot-	.
8b- 8d/	8ddd 8bb- 8ff 8dd/	.	.	.	.	8dd\J)	.	.
8b-J 8B-/	8bb-J 8ff 8dd/	]	.	.	.	8b-\	-ne	.
*clefF4	*	*	*	*	*	*	*	*
8GGnL 8GGGn/	(16dddLL 16bbn 16ggn 16dd/	.	.	.	.	(16dd\LL	wo-	.
.	16eeenJJ 16een/)	.	.	.	.	16een\JJ)	.	.
8Bn 8G 8D/	[4ddd [4dd/	.	.	.	.	[4dd\	-nie...	.
8dJ 8B 8G/	.	.	.	.	.	.	.	.
8gnL 8d 8B\	8ddd]L 8dd/]	.	.	.	.	4dd\]	.	.
8g 8c 8A\	8ccc 8gg 8cc/	.	.	.	.	.	.	.
8gJ 8d 8B\	8dddJ 8gg 8dd/	.	.	.	.	8r	.	.
=26	=26	=26	=26	=26	=26	=26	=26	=26
4.C 4.CC/	8eeen 8gg 8een/	.	1.ryy	.	.	8een\	Bu-	.
*	*X8va	*	*	*	*	*	*	*
.	8bnL 8g 8en/	.	.	.	.	8bn\	-dzą	.
.	8ccJ 8g 8e/	.	.	.	.	8cc\	pie-	.
8gL 8f 8Bn\	4r	.	.	.	.	(16dd\LL	-szczo-	.
.	.	.	.	.	.	16ee\JJ)	.	.
8g 8f 8B\	.	.	.	.	.	4ff\	-tą	.
8gJ 8f 8B\	8ddd 8dd\	mf	.	.	.	.	.	.
8CL 8CC/	8gggL 8gg\	.	.	.	.	2.r	.	.
8B 8G 8En/	8bbn 8bn\	.	.	.	.	.	.	.
8cJ 8G 8E/	8cccJ 8cc\	.	.	.	.	.	.	.
8BB-XL 8BBB-X/	(16eeenLL 16een\	.	.	.	.	.	.	.
.	16fffJJ 16ff\	.	.	.	.	.	.	.
8Bn 8G 8E/	8gggL 8gg\)	.	.	.	.	.	.	.
8cJ 8G 8E/	8cccJ 8cc\	.	.	.	.	.	.	.
=27	=27	=27	=27	=27	=27	=27	=27	=27
8AA-XL 8AAA-X/	8cccL 8ff 8cc\	.	1.ryy	.	.	2.r	.	.
!	!LO:TX:a:i:t=poco più	!	!	!	!	!	!	!
8C 8CC/	8bb-X 8ff 8b-X\	.	.	.	.	.	.	.
8FJ 8FF/	8aa-XJ 8cc 8a-X\	.	.	.	.	.	.	.
8D-XL 8DD-X/	8ggL 8cc 8g\	.	.	.	.	.	.	.
8c 8F 8D-/	8aa- 8cc 8a-\	.	.	.	.	.	.	.
8cJ 8F 8D-/	8ffJ 8cc 8f\	.	.	.	.	.	.	.
8BB-XL 8BBB-X\	8cccL 8aa- 8ddn 8cc^^\	.	.	.	.	4r	.	.
8B-X 8A 8Dn\	8bb- 8dd 8b-\	>	.	.	.	.	.	.
8fJ 8B- 8A\	8aa-J 8dd 8a-\	.	.	.	.	8r	.	.
4d 4B- 4A\	8ggL 8b- 8g/	.	.	.	.	4r	.	.
.	8ff 8b- 8f/	.	.	.	.	.	.	.
!	!	!	!	!	!	!	!	!LO:DY:a
8BB- 8BBB-/	8ddJ 8b- 8a- 8d/	]	.	.	.	8dd\	Po-	p
!!LO:LB:g=original
=28	=28	=28	=28	=28	=28	=28	=28	=28
8E-L 8EE-/	8ee-L 8cc 8a-X 8e-/	p	1.ryy	.	.	(8ee-/L	-ran-	.
8D-X 8DD-X/	8g 8e- 8B-/	.	.	.	.	8g/J)	.	.
8CJ 8CC/	8a-J 8e- 8A-X/	.	.	.	.	8a-X/	-ny	<
4BB- 4BBB-/	8ff 8dd-X 8g 8f\	.	.	.	.	8ff\	wie-	.
.	4ee- 4dd- 4g 4e-/	.	.	.	.	4ee-\	-trzyk	.
8d-X 8G 8E-\	.	<	.	.	.	.	.	.
8AA-XL 8AAA-X/	8ee-L 8cc 8g-X 8e-/	.	.	.	.	8ee-\	chło-	.
8B- 8G-X 8E-/	8b- 8g- 8e-/	.	.	.	.	8b-\	-dzi	.
8cJ 8G- 8E-/	8ccJ 8g- 8e-/	.	.	.	.	8cc\	me	.
8AA-L 8AAA-/	8gg-XL 8cc 8g-\	mf	.	.	.	([4.gg-X\	skro-	.
8BB- 8BBB-/	8dd-X 8b- 8g-\	.	.	.	.	.	.	.
8CJ 8CC/	8ee-J 8a- 8g-\	.	.	.	.	.	.	.
=29	=29	=29	=29	=29	=29	=29	=29	=29
8D-XL 8DD-X\	4gg-X 4dd-X 4a-X 4g-X\	.	1.ryy	.	.	4gg-\]	.	.
8A-X 8D-\	.	.	.	.	.	.	.	.
8d-XJ 8A- 8F\	8ff 8dd- 8a- 8f\	.	.	.	.	8ff\)	.	.
8d-L 8A- 8F/	4ff 4dd- 4a- 4f\	<	.	.	.	4ff\	-nie.	.
8D- 8DD-/	.	.	.	.	.	.	.	.
8CJ 8CC/	8fff 8ff\	.	.	.	.	8r	.	.
8BB-L 8BBB-\	4fff 4ff\	[	.	.	.	2.r	.	.
8d- 8Gn 8F\	.	.	.	.	.	.	.	.
8fJ 8d- 8G\	8ggn 8gn\	.	.	.	.	.	.	.
8GGL 8GGG/	8bb-L 8b-\	>	.	.	.	.	.	.
8B- 8F 8D-/	8ccc 8cc\	.	.	.	.	.	.	.
8d-J 8B- 8F/	8ddd-XJ 8dd-X\	]	.	.	.	.	.	.
=30	=30	=30	=30	=30	=30	=30	=30	=30
!	!	!	!	!	!	!	!	!LO:DY:a
4.C 4.CC/	8cccL 8een 8cc\	p	1.ryy	.	.	4.een\	W ser-	mf
.	8ee 8cc 8g\	.	.	.	.	.	.	.
.	8ffJ 8cc 8g\	.	.	.	.	.	.	.
4C 4CC/	8ggL 8ee 8cc 8g\	.	.	.	.	4g/	-cu	.
!	!	!LO:HP:t=crescendo	!	!	!	!	!	!
.	8g 8en\	<	.	.	.	.	.	.
8BB- 8BBB-/	8dd-XJ 8g 8f\	.	.	.	.	8dd-X\	roz-	.
4GG 4GGG/	8dd-L 8b- 8f/	.	.	.	.	8dd-\	-ko-	.
.	8cc 8b- 8e/	.	.	.	.	8cc\	-szy	<
8C 8CC/	8gJ 8e 8c/	.	.	.	.	16r	.	.
.	.	.	.	.	.	16bn\	w bie-	.
8BB-XL 8BBB-X/	8ccL 8g 8e/	.	.	.	.	(8cc\L	-ra-	.
8GG 8GGG/	8ee 8cc 8b- 8e/	.	.	.	.	8ee\J)	.	.
8EEnJ 8EEEn/	8ggJ 8cc 8b- 8g/	.	.	.	.	8gg\	-ją	[
!!LO:LB:g=original
=31	=31	=31	=31	=31	=31	=31	=31	=31
!	!	!	!	!	!	!	!	!LO:DY:a:rj
8FFL 8FFF/	8bb-L 8dd 8b-\	f	1.ryy	.	.	([4.bb-\	to-	f
8A 8F 8D/	8aa 8dd 8a\	.	.	.	.	.	.	.
8B-J 8F 8D/	8ggJ 8dd 8g\	.	.	.	.	.	.	.
8B-L 8F 8D\	8ffL 8dd 8f\	.	.	.	.	4bb-\]	.	.
8B- 8F 8D\	8dd 8b- 8d\	.	.	.	.	.	.	.
8dJ 8F 8D\	8aaJ 8dd 8a\	.	.	.	.	8dd\)	.	.
8dL 8F 8D\	(16aaLL 16dd 16a\	.	.	.	.	[4.ff\	-nie,	.
.	16ggJJ 16g\)	.	.	.	.	.	.	.
8c 8F 8D\	[4ff [4dd [4f\	.	.	.	.	.	.	.
8B-J 8F 8D\	.	.	.	.	.	.	.	.
8AL 8F 8D\	4ff] 4dd] 4f\]	.	.	.	.	4ff\]	.	.
8B- 8F 8D\	.	.	.	.	.	.	.	.
8FJ 8D\	8r	.	.	.	.	8r	.	.
=32	=32	=32	=32	=32	=32	=32	=32	=32
!	!	!LO:HP:t=dim.	!	!	!	!	!	!
4G 4GG/	4ee- 4bn 4g 4e-/	>	1.ryy	.	.	(4ee-\	Słod-	.
8F 8FF/	8dd 8b 8g 8d/	.	.	.	.	8dd\)	.	.
4.E- 4.EE-/	4b 4g 4c/	.	.	.	.	8bn\	-ką	.
.	.	.	.	.	.	8r	.	.
!	!	!	!	!	!	!	!	!LO:HP:t=dim.
.	8cc 8g 8c/	.	.	.	.	8cc\	z bu-	>
!	!LO:TX:b:i:t=rit.	!	!	!	!	!	!	!
4.C 4.CC/	4b-X 4g 4e- 4c/	.	.	.	.	(4gg\	-dzo-	.
.	8g 8e- 8B-/	>	.	.	.	8g/)	.	.
4F 4FF/	4a 4f 4e- 4A/	.	.	.	.	8a/	-ne	.
.	.	]	.	.	.	8r	.	.
!	!	!	!	!	!	!	!	!LO:DY:a
8r	8r	.	.	.	.	8cc\	tęs-	p
=33	=33	=33	=33	=33	=33	=33	=33	=33
8BB-L 8BBB-\	8dddL 8ff 8dd\	p	1.ryy	.	.	2.ff\	-kno-	.
8f 8c\	8ccc 8ff 8cc\	.	.	.	.	.	.	.
8fJ 8B-\	8bb-J 8ff 8dd 8b-\	.	.	.	.	.	.	.
8fL 8A\	8aaL 8ff 8dd 8a\	.	.	.	.	.	.	.
8f 8G\	8gg 8ff 8dd 8g\	.	.	.	.	.	.	.
8fJ 8A\	8aaJ 8gg 8dd 8a\	.	.	.	.	.	.	.
8fL 8B-/	(16bb-LL 16ff 16dd 16b-\	.	.	.	.	[2.dd\	-tą.	.
.	16cccJJ 16cc\)	.	.	.	.	.	.	.
8BB- 8BBB-/	[4bb- [4dd [4b-\	.	.	.	.	.	.	.
8GJ 8GG/	.	.	.	.	.	.	.	.
4F 4FF/	8bb-]L 8dd] 8b-\]	.	.	.	.	.	.	.
.	8gg 8dd 8g\	.	.	.	.	.	.	.
8D 8DD/	8aaJ 8ff 8dd 8a\	.	.	.	.	.	.	.
!!LO:LB:g=original
=34	=34	=34	=34	=34	=34	=34	=34	=34
8BB-L 8BBB-/	8bb-L 8ff 8dd 8b-\	.	1.r	.	.	4dd\]	.	.
8d 8A/	8aa 8dd 8a\	.	.	.	.	.	.	.
8dJ 8G/	8ggJ 8dd 8g\	.	.	.	.	8r	.	.
8dL 8F\	8ffL 8dd 8f\	.	.	.	.	4r	.	.
8B- 8F 8D\	8dd 8b- 8d\	.	.	.	.	.	.	.
8dJ 8F 8D\	8aaJ 8dd 8a\	.	.	.	.	8r	.	.
8dL 8F 8D\	(16aaLL 16dd 16a\	.	.	.	.	2.r	.	.
.	16ggJJ 16g\)	.	.	.	.	.	.	.
8B- 8F 8D\	[4ff [4dd [4f\	.	.	.	.	.	.	.
8cJ 8F 8D\	.	.	.	.	.	.	.	.
8d 8F 8D\	8ff] 8dd] 8f\]	.	.	.	.	.	.	.
8DL 8DD/	8b-L 8f/	>	.	.	.	.	.	.
8E-J 8EE-/	8ccJ 8b- 8g/	]]	.	.	.	.	.	.
=35	=35	=35	=35	=35	=35	=35	=35	=35
!	!	!	!	!	!	!	!	!LO:DY:a
4.C 4.CC/	8ddL 8b- 8g 8e-/	pp	1.r	.	.	8dd\	Słod-	p
.	8cc 8a 8e-/	.	.	.	.	8cc\	-ką	.
.	8b-J 8g 8e-/	.	.	.	.	8b-\	zbu-	.
!	!	!	!	!	!	!LO:TX:a:i:t=rall.	!	!
4D 4DD/	8aL 8f#X 8c/	.	.	.	.	8a/	-dzo-	.
.	8g 8en 8c/	.	.	.	.	8g/	-ne	.
8Fn 8FFn/	8aJ 8e-X 8c/	.	.	.	.	16r	.	.
.	.	.	.	.	.	16a/	tę-	.
[4.BB- [4.BBB-/	8b-L 8fn 8d/	.	.	.	.	(16b-\LL	-skno-	.
.	.	.	.	.	.	16cc\JJ	.	.
.	8f 8d 8B-/	.	.	.	.	4b-\	.	.
.	8b-J 8f 8d/	.	.	.	.	.	.	.
8BB-]L 8BBB-/]	8g-XL 8e- 8c/	.	.	.	.	16gg-X\LL	.	.
.	.	.	.	.	.	16aa-X\JJ	.	.
8GG-X 8GGG-X/	8b- 8e- 8c/	.	.	.	.	4gg-\)	.	.
8AA-XJ 8AAA-X/	8g-J 8e- 8c/	.	.	.	.	.	.	.
=36	=36	=36	=36	=36	=36	=36	=36	=36
!	!	!	!LO:N:vis=2.	!	!	!	!	!
4.BB- 4.BBB-/	8fL 8d/	.	2.r	.	.	[2.ff\	-tą!	.
.	8cc 8f 8d/	.	.	.	.	.	.	>
.	8anJ 8f 8d/	.	.	.	.	.	.	.
4.F 4.BB-\	8b-L 8f 8d/	.	.	.	.	.	.	.
.	8dd 8b- 8f/	.	.	.	.	.	.	.
.	8ffJ 8dd 8b-/	.	.	.	.	.	.	]
[4.f [4.B-\	[4.bb- [4.ff [4.dd [4.b-\	.	4r;	.	.	4ff;\]	.	.
!	!	!	!LO:TX:a:B:t=Selene.	!	!	!	!	!
.	.	.	8r	.	.	8r	.	.
8f] 8B-;\]	8bb-] 8ff] 8dd] 8b-;\]	.	4r;	.	.	4r;	.	.
8r;	8r;	.	.	.	.	.	.	.
!	!	!	!LO:N:vis=4	!	!	!	!	!
8r	8r	.	8ff\	O!	.	8r	.	.
!!LO:PB:g=original
=37||	=37||	=37||	=37||	=37||	=37||	=37||	=37||	=37||
!!!OMD: Moderato con moto.
*M4/4	*M4/4	*	*M4/4	*	*	*M4/4	*	*
*met(c)	*met(c)	*	*met(c)	*	*	*met(c)	*	*
1r	1r	.	1ff	Li-	.	1ryy	.	.
=38	=38	=38	=38	=38	=38	=38	=38	=38
4r	4r	.	4dd\	-vio!	.	1ryy	.	.
!	!	!LO:DY:rj	!	!	!	!	!	!
2D 2DD/	(8ccL 8f 8c/	p	4r	.	.	.	.	.
.	8b-J 8B-/	.	.	.	.	.	.	.
.	4a 4f 4d 4A/)	.	4r	.	.	.	.	.
!	!	!	!	!	!LO:DY:a	!	!	!
4r	4r	.	4a/	tyś	p	.	.	.
=39	=39	=39	=39	=39	=39	=39	=39	=39
*	*^	*	*	*	*	*	*	*
[2GG/	2g/	[2d [2B-\	.	8.b-\	pię-	.	1ryy	.	.
.	.	.	.	16dd\	-kna	.	.	.	.
.	.	.	.	8.cc#X\	jak	.	.	.	.
.	.	.	.	16een\	wio-	.	.	.	.
8GG/]	(8b-/L	8d] 8B-\]	.	4dd\	-sen-	.	.	.	.
8r	8d/	8r	.	.	.	.	.	.	.
4r	8g/	4r	.	4g/	-ny	.	.	.	.
.	8f/J)	.	.	.	.	.	.	.	.
*	*v	*v	*	*	*	*	*	*	*
=40	=40	=40	=40	=40	=40	=40	=40	=40
[2C [2CC/	4a 4f 4d 4B-/	.	(2dd\	ra-	.	1ryy	.	.
.	(>8d/L	.	.	.	.	.	.	.
.	8d#X/J)	.	.	.	.	.	.	.
.	.	.	8qen/	.	.	.	.	.
4C] 4CC/]	4en 4B- 4Gn/	.	4eny/)	-nek.	.	.	.	.
8.r	8.r	.	4r	.	.	.	.	.
16c 16B-\	(16e-X/	p	.	.	.	.	.	.
=41	=41	=41	=41	=41	=41	=41	=41	=41
!	!LO:TX:a:i:t=legg.	!	!	!	!	!	!	!
8c 8A\	8f/L)	.	1r	.	.	1ryy	.	.
8r	16r	.	.	.	.	.	.	.
.	(16b-/Jk	.	.	.	.	.	.	.
4r	8g#X/L)	.	.	.	.	.	.	.
.	16r	.	.	.	.	.	.	.
.	(16a/Jk	.	.	.	.	.	.	.
2r	8bn\L)	.	.	.	.	.	.	.
.	16r	.	.	.	.	.	.	.
.	(16cc\Jk	.	.	.	.	.	.	.
.	8aa\L)	.	.	.	.	.	.	.
.	16r	.	.	.	.	.	.	.
.	(16ff\Jk	.	.	.	.	.	.	.
!!LO:LB:g=original
=42	=42	=42	=42	=42	=42	=42	=42	=42
!	!	!	!	!	!	!LO:TX:a:B:t=Livia. (żartobliwie)	!	!
1G 1GG	4dd 4bn 4f/)	.	1ryy	.	.	4r	.	.
.	4b 4f 4d/	.	.	.	.	8r	.	.
.	.	.	.	.	.	8ff\	Czy	.
.	4a 4f 4c/	.	.	.	.	8a/	słów	.
.	.	.	.	.	.	8cc\	po-	.
.	4g 4f 4Bn/	.	.	.	.	8bn\	-chle-	.
.	.	.	.	.	.	8g/	-bnych	.
=43	=43	=43	=43	=43	=43	=43	=43	=43
8c: 8G: 8C:\	8r	.	1ryy	.	.	4.een\	u-	.
!	!LO:TUP:b:problem:klamra łukowa	!	!	!	!	!	!	!
8r	24en/LL	.	.	.	.	.	.	.
.	24a/	.	.	.	.	.	.	.
.	24g/JJ	.	.	.	.	.	.	.
4r	8een\	.	.	.	.	.	.	.
.	8r	.	.	.	.	8cc\	-czył	.
8Bn: 8G: 8C:\	8r	.	.	.	.	4bn\	cię	.
!	!LO:TUP:b	!	!	!	!	!	!	!
8r	(<24d/LL	.	.	.	.	.	.	.
.	24g/	.	.	.	.	.	.	.
.	24f/JJ	.	.	.	.	.	.	.
4r	8bn\)	.	.	.	.	8r	.	.
.	8r	.	.	.	.	8gg\	ko-	.
=44	=44	=44	=44	=44	=44	=44	=44	=44
8c: 8G: 8C:\	8r	.	2.ryy	.	.	4een\	-cha-	.
!	!LO:TUP:b	!	!	!	!	!	!	!
8r	(<24en/LL	.	.	.	.	.	.	.
.	24a/	.	.	.	.	.	.	.
.	24g/JJ	.	.	.	.	.	.	.
4r	8cc\)	.	.	.	.	8cc\	-nek?	.
.	8r	.	.	.	.	8r	.	.
4r;	4r;	.	.	.	.	4r;	.	.
!	!	!	!LO:TX:a:B:t=Selene.	!	!LO:DY:a	!	!	!
4r	4r	.	4een\	Ko-	mp	4ryy	.	.
=45	=45	=45	=45	=45	=45	=45	=45	=45
2r	2r	.	(2.een\	-cha-	.	1ryy	.	.
[2E-X [2EE-X/	[2g [2d-X^^/	mf	.	.	.	.	.	.
.	.	.	4ee-X\)	.	.	.	.	.
=46	=46	=46	=46	=46	=46	=46	=46	=46
2E-] 2EE-/]	2g] 2d-/]	.	2b-X\	-nek?	.	1ryy	.	.
2r	4r	.	2r	.	.	.	.	.
.	8.r	.	.	.	.	.	.	.
.	(16dn/	.	.	.	.	.	.	.
!!LO:LB:g=original
=47	=47	=47	=47	=47	=47	=47	=47	=47
1r	8e-X/L)	.	1r	.	.	1ryy	.	.
.	16r	.	.	.	.	.	.	.
.	(16b-/Jk	.	.	.	.	.	.	.
.	8g/L)	.	.	.	.	.	.	.
.	16r	.	.	.	.	.	.	.
.	(<16a-X/Jk	.	.	.	.	.	.	.
.	8cc-X\L)	.	.	.	.	.	.	.
.	16r	.	.	.	.	.	.	.
.	(16ee-\Jk	.	.	.	.	.	.	.
.	8bb-\L)	.	.	.	.	.	.	.
.	16r	.	.	.	.	.	.	.
.	16aa-X\Jk	.	.	.	.	.	.	.
=48	=48	=48	=48	=48	=48	=48	=48	=48
*	*^	*	*	*	*	*	*	*
[1f [1G	(2.aa-X/	[1bn	.	1r	.	.	1ryy	.	.
.	4gg/	.	.	.	.	.	.	.	.
=49	=49	=49	=49	=49	=49	=49	=49	=49	=49
4f] 4G\]	4dd/)	8b\L]	.	2r	.	.	2ryy	.	.
.	.	16r	.	.	.	.	.	.	.
.	.	(16a-X\Jk	.	.	.	.	.	.	.
4r	4r	8g\L)	.	.	.	.	.	.	.
.	.	16r	.	.	.	.	.	.	.
.	.	(>16f#X\Jk	.	.	.	.	.	.	.
2r	2r	8fn\L)	.	4r	.	.	4ryy	.	.
.	.	16r	.	.	.	.	.	.	.
.	.	(16e-\Jk	.	.	.	.	.	.	.
*	*	*	*	*	*	*	*clefG2	*	*
!	!	!	!	!	!	!	!LO:TX:a:B:t=Livia. (badawczo)	!	!LO:DY:a
.	.	8d\L)	.	4ryy	.	.	8bn\	Mo-	p
.	.	16r	.	.	.	.	8cc\	-że	.
.	.	(>16c\Jk	.	.	.	.	.	.	.
*	*v	*v	*	*	*	*	*	*	*
=50	=50	=50	=50	=50	=50	=50	=50	=50
4r	8Bn/L)	.	1ryy	.	.	4.dd\	ten	.
.	16r	.	.	.	.	.	.	<
.	(>16a-X/Jk	.	.	.	.	.	.	.
[4G [4GG/	[4g [>4f [4B/)	<	.	.	.	.	.	.
.	.	.	.	.	.	8ee-X\	lu-	[
8G] 8GG/]	8g]L 8f] 8B/]	[	.	.	.	4.ff\	-tnis-	.
8r	16r	.	.	.	.	.	.	.
.	(>16cc/Jk	.	.	.	.	.	.	.
[4G [4D\	[4bn [4f/)	.	.	.	.	.	.	.
!	!	!	!	!	!	!	!	!LO:DY:a
.	.	.	.	.	.	8bn\	-ta	mf
=51	=51	=51	=51	=51	=51	=51	=51	=51
8G] 8D\]	8b]L 8f/]	.	1ryy	.	.	4ee-X\	bla-	.
8r	16r	.	.	.	.	.	.	.
.	(>16cc#X/Jk	mf	.	.	.	.	.	.
4Bn 4G\	4dd 4f/)	.	.	.	.	4dd\	-dy?	.
2r	8.r	.	.	.	.	2r	.	.
.	(16c#X/	.	.	.	.	.	.	.
.	8d/L)	.	.	.	.	.	.	.
.	16r	.	.	.	.	.	.	.
.	(16a-X/Jk	.	.	.	.	.	.	.
!!LO:LB:g=original
=52	=52	=52	=52	=52	=52	=52	=52	=52
!	!	!	!LO:TX:a:B:t=Selene.	!	!LO:DY:a	!	!	!
4BBn/	8gL 8d/)	.	2ff\	Ly-	p	1ryy	.	.
.	16r	.	.	.	.	.	.	.
.	(<16f/Jk	.	.	.	.	.	.	.
4r	8ee-\L)	.	.	.	.	.	.	.
.	16r	.	.	.	.	.	.	.
.	(16dd\Jk	.	.	.	.	.	.	.
4G 4GG/	8bnL 8f/)	.	4dd\	-kon?	.	.	.	.
.	16r	.	.	.	.	.	.	.
.	(16a-X/Jk	.	.	.	.	.	.	.
4r	8f#X/L)	.	4r	.	.	.	.	.
.	16r	.	.	.	.	.	.	.
.	16a-/Jk	.	.	.	.	.	.	.
=53	=53	=53	=53	=53	=53	=53	=53	=53
!	!LO:TUP:b	!	!LO:TX:a:i:t=con melancolia	!	!	!	!	!
2C 2CC/	(12gL 12e-/	.	4r	.	.	1ryy	.	.
.	12Bn/	.	.	.	.	.	.	.
.	12c/J	.	.	.	.	.	.	.
!	!LO:TUP:b	!	!	!	!	!	!	!
.	12G/L	.	4ee-\	On	.	.	.	.
.	12c/	.	.	.	.	.	.	.
.	12f#X/J)	.	.	.	.	.	.	.
*	*Xtuplet	*	*	*	*	*	*	*
2C 2EE-/	(12gL 12c/	.	4dd\	gar-	.	.	.	.
.	12B/	.	.	.	.	.	.	.
.	12c/J	.	.	.	.	.	.	.
.	12a-X/L	.	8cc\	-dzi	.	.	.	.
.	12g/	.	.	.	.	.	.	.
.	.	.	8g/	có-	.	.	.	.
.	12c/J)	.	.	.	.	.	.	.
=54	=54	=54	=54	=54	=54	=54	=54	=54
!	!	!	!	!	!LO:DY:a	!	!	!
2C 2FF/	(12g/L	.	4b-X\	-ra-	<	1ryy	.	.
.	12A-X/	.	.	.	.	.	.	.
.	12Bn/J	.	.	.	.	.	.	.
.	12c/L	.	8a-X/	-mi	.	.	.	.
.	12f/	.	.	.	.	.	.	.
.	.	.	8ee-X\	Hel-	[	.	.	.
.	12a-X/J)	.	.	.	.	.	.	.
2F 2AA/	(12c/L	.	(4dd\	-la-	.	.	.	.
.	12b-/	.	.	.	.	.	.	.
!	!	!LO:HP:t=cresc	!	!	!	!	!	!
.	12a-/J	<	.	.	.	.	.	.
.	12f/L	.	4cc\)	.	.	.	.	.
.	12d/	.	.	.	.	.	.	.
.	12a-/J)	.	.	.	.	.	.	.
!!LO:LB:g=original
=55	=55	=55	=55	=55	=55	=55	=55	=55
2F 2GG/	(12d/L	.	8bn\	-dy,	.	1ryy	.	.
.	12g/	.	.	.	.	.	.	.
.	.	.	8r	.	.	.	.	.
.	12f/J	.	.	.	.	.	.	.
!	!	!	!	!	!LO:DY:a	!	!	!
.	12cc/L	.	4ff\	On	mf	.	.	.
.	12bn/	.	.	.	.	.	.	.
.	12a-X/J)	.	.	.	.	.	.	.
2G 2BBn\	(12g/L	.	4ee-\	za-	.	.	.	.
.	12d/	.	.	.	.	.	.	.
.	12e-/J	.	.	.	.	.	.	.
.	12f/L	.	4dd\	-pa-	.	.	.	.
.	12g/	.	.	.	.	.	.	.
.	12f/J)	.	.	.	.	.	.	.
=56	=56	=56	=56	=56	=56	=56	=56	=56
4C/	(12e-/L	.	(4gg\	-trzo-	.	1ryy	.	.
.	12g/	.	.	.	.	.	.	.
.	12c/J	.	.	.	.	.	.	.
(4A-X\	12d/L	.	4bn\)	.	.	.	.	.
.	12f/	.	.	.	.	.	.	.
.	12bn/J)	.	.	.	.	.	.	.
4G\)	4cc 4e- 4c/	.	4cc\	-ny...	.	.	.	.
4r	8.r	.	4r	.	.	.	.	.
*	*8va	*	*	*	*	*	*	*
.	(32fff#X\LLL	.	.	.	.	.	.	.
.	32ggg\JJJ	.	.	.	.	.	.	.
*clefG2	*	*	*	*	*	*	*	*
=57	=57	=57	=57	=57	=57	=57	=57	=57
8gg 8ee-^^\	8cccc 8ggg 8ccc\)	.	1r	.	.	1ryy	.	.
8r	8r	.	.	.	.	.	.	.
!	!	!	!LO:TX:a:t=(Livia spogląda na Selene surowo i badawczo)	!	!	!	!	!
4r	8.r	.	.	.	.	.	.	.
.	(32ddd\LLL	.	.	.	.	.	.	.
.	32eee-\JJJ	.	.	.	.	.	.	.
4r	32fff#X\LLL	.	.	.	.	.	.	.
.	32ggg\JJJ)	.	.	.	.	.	.	.
.	16r	.	.	.	.	.	.	.
.	8r	.	.	.	.	.	.	.
8gg 8cc^^\	8eeee- 8ggg 8eee-\	sf	.	.	.	.	.	.
*	*X8va	*	*	*	*	*	*	*
8r	16r	.	.	.	.	.	.	.
.	(32bbn\LLL	.	.	.	.	.	.	.
.	32ccc\JJJ	.	.	.	.	.	.	.
=58	=58	=58	=58	=58	=58	=58	=58	=58
4r	32aa-X\LLL	.	1r;	.	.	1ryy	.	.
.	32gg\JJJ)	.	.	.	.	.	.	.
.	16r	.	.	.	.	.	.	.
.	8r	.	.	.	.	.	.	.
8cc 8g 8c/	8ggg 8eee- 8gg\	sf	.	.	.	.	.	.
8r	8r	.	.	.	.	.	.	.
2r;	2r;	.	.	.	.	.	.	.
*clefF4	*	*	*	*	*	*	*	*
!!LO:PB:g=original
=59	=59	=59	=59	=59	=59	=59	=59	=59
!	!	!	!LO:TX:a:t=(z pokorą lecz dwuznacznie)	!	!LO:DY:a:rj	!	!	!
2c 2F\	2gg 2ee- 2an\	.	2.gg\	w gwiaz-	pp	1ryy	.	.
[2F 2FF/	[2a 2e-/	.	.	.	.	.	.	.
.	.	.	4a/	-dę	.	.	.	.
=60	=60	=60	=60	=60	=60	=60	=60	=60
*	*^	*	*	*	*	*	*	*
2F_ [2BB-\	4a/]	[2d\	.	4r	.	.	1ryy	.	.
.	(8cc/L	.	.	8cc\	na	.	.	.	.
.	8b-/J	.	.	8b-\	błę-	.	.	.	.
4F] 4BB-\]	4f/)	4d\]	.	4cc#X\	-ki-	.	.	.	.
4ryy	4r	4ryy	.	4dd\	-cie	.	.	.	.
=61	=61	=61	=61	=61	=61	=61	=61	=61	=61
2AA 2AAA/	(2.e-X/	2c 2G\	.	4r	.	.	1ryy	.	.
!	!	!	!	!	!	!LO:DY:a:rj	!	!	!
.	.	.	.	4ee-X\	nie	mf	.	.	.
4AA 4DD/	.	2A 2F#X\	.	4e-X/	ra-	.	.	.	.
[4D\	8d/L	.	.	(8d/L	-czy	.	.	.	.
.	[8f#X/J	.	.	8a/J)	.	.	.	.	.
=62	=62	=62	=62	=62	=62	=62	=62	=62	=62
2D_ [2GG/	8f#X/L]	[2B-\	.	4cc\	zwa-	.	1ryy	.	.
.	8a/	.	.	.	.	.	.	.	.
.	8g/	.	.	4b-\	-żać	.	.	.	.
.	8e-/J	.	.	.	.	.	.	.	.
4D] 4GG/]	4d/)	4B-\]	.	4r	.	.	.	.	.
4r	4r	4ryy	.	8g/	na	.	.	.	.
.	.	.	.	8a/	nie-	.	.	.	.
*	*v	*v	*	*	*	*	*	*	*
=63	=63	=63	=63	=63	=63	=63	=63	=63
*^	*	*	*	*	*	*	*	*
2En/	(1G [1AA 1AAA	2c^^/	.	2.b-\	-wol-	.	1ryy	.	.
2E-X/	.	2c#X/	>]	.	.	.	.	.	.
.	.	.	.	4c#X/	-nic	.	.	.	.
*v	*v	*	*	*	*	*	*	*	*
=64	=64	=64	=64	=64	=64	=64	=64	=64
4AA] 4DD\)	4d 4F#X< 4D</	.	4g/	wdzię-	.	1ryy	.	.
4r	4r	.	4f#X/	-ki.	.	.	.	.
2r	4r	.	2r	.	.	.	.	.
.	8.r	.	.	.	.	.	.	.
.	(16d/	p	.	.	.	.	.	.
!!LO:LB:g=original
=65	=65	=65	=65	=65	=65	=65	=65	=65
!	!	!	!	!	!	!LO:TX:a:B:t=Livia.	!	!
1r	8e-/L)	.	1ryy	.	.	2r	.	.
.	16r	.	.	.	.	.	.	.
.	(16a/Jk	.	.	.	.	.	.	.
.	8en/L)	.	.	.	.	.	.	.
.	16r	.	.	.	.	.	.	.
.	(16f#X/Jk	.	.	.	.	.	.	.
.	8b-/L)	.	.	.	.	4r	.	.
.	16r	.	.	.	.	.	.	.
.	(16a/Jk	.	.	.	.	.	.	.
!	!	!	!	!	!	!	!	!LO:DY:a
.	8d/L)	.	.	.	.	4dd\	On	p
.	16r	.	.	.	.	.	.	.
.	(16c/Jk	.	.	.	.	.	.	.
=66	=66	=66	=66	=66	=66	=66	=66	=66
2D 2GG/	8B-/L)	.	1ryy	.	.	2dd\	mistrz,	.
.	16r	.	.	.	.	.	.	.
.	(16d/Jk	.	.	.	.	.	.	.
.	8a/L)	.	.	.	.	.	.	.
.	16r	.	.	.	.	.	.	.
.	(16f#X/Jk	.	.	.	.	.	.	.
2r	8g/L)	.	.	.	.	4r	.	.
.	16r	.	.	.	.	.	.	.
.	(16B-/Jk	.	.	.	.	.	.	.
.	8e-/L)	.	.	.	.	4g/	on	.
.	16r	.	.	.	.	.	.	.
.	16d/Jk	.	.	.	.	.	.	.
=67	=67	=67	=67	=67	=67	=67	=67	=67
*	*^	*	*	*	*	*	*	*
(2E-\	(8g/L	2c\	.	1ryy	.	.	(8g/L	sztu-	.
.	8dd/J	.	.	.	.	.	8dd/J)	.	.
.	4g/)	.	.	.	.	.	8g/	-ce	.
.	.	.	.	.	.	.	8a/	po-	.
2C/)	(8g/L	4e-\	.	.	.	.	(8bn\L	-świę-	.
.	8cc/J	.	.	.	.	.	8cc\J)	.	.
.	4e- 4c/)	4ryy	.	.	.	.	8e-/	-cił	.
.	.	.	.	.	.	.	8g/	swe	.
*	*v	*v	*	*	*	*	*	*	*
!!LO:LB:g=original
=68	=68	=68	=68	=68	=68	=68	=68	=68
2FF/	(4g 4e- 4c/	.	1ryy	.	.	2ee-\	ży-	.
.	4g-X 4e- 4B-/	.	.	.	.	.	.	.
(4F\	8fL 8c 8A/)	.	.	.	.	8a/	-cie,	.
.	16r	.	.	.	.	8r	.	.
.	(16a/Jk	.	.	.	.	.	.	.
4E-\)	8b-L 8f 8c/)	.	.	.	.	4cc\	od-	.
.	16r	.	.	.	.	.	.	.
.	16cc/Jk	.	.	.	.	.	.	.
=69	=69	=69	=69	=69	=69	=69	=69	=69
(2D\	8r	<	1ryy	.	.	(4f/	-dy-	<
.	8b- 8f/	.	.	.	.	.	.	.
.	4ff 4b-\	[	.	.	.	2ff\)	.	.
2C/)	8r	.	.	.	.	.	.	[
.	8b- 8en/	.	.	.	.	.	.	.
.	4een 4b-\	.	.	.	.	4een\	-cha,	.
=70	=70	=70	=70	=70	=70	=70	=70	=70
(<4G-X\	(4ee-X 4b- 4e-X/	.	1ryy	.	.	4ee-X\	ży-	.
4BB-/	4g-X 4e- 4c/	.	.	.	.	8g-X/	-je	.
.	.	.	.	.	.	8b-'\	to-	.
4AA/	4f 4e- 4c/	>	.	.	.	(8dd\L	-na-	.
.	.	.	.	.	.	8bn\J)	.	.
4FF/)	4cc 4a 4e-/)	]	.	.	.	8cc\	-mi	.
.	.	.	.	.	.	8ee-\	pio-	.
=71	=71	=71	=71	=71	=71	=71	=71	=71
1BB- 1BBB-	(<2ee- 2a 2gn\	p	1ryy	.	.	(<2a/	-sen-	.
.	4dd 4a 4f/	.	.	.	.	2gg\)	.	.
.	4cc#X 4a 4e-/)	.	.	.	.	.	.	.
=72	=72	=72	=72	=72	=72	=72	=72	=72
4BB- 4BBB-/	2.ddd 2.dd\	.	2ryy	.	.	4ff\	-ki.	.
4d 4B- 4F\	.	<	.	.	.	4r	.	.
4f 4d 4B-\	.	.	4ryy	.	.	4r	.	.
*	*	*	*clefG2	*	*	*	*	*
!	!	!	!LO:TX:a:B:t=Selene.	!	!LO:DY:a	!	!	!
4r	8.dddL 8.dd\	.	4ff\	A	f	4ryy	.	.
.	16bb-Jk 16b-\	.	.	.	.	.	.	.
!!LO:LB:g=original
=73	=73	=73	=73	=73	=73	=73	=73	=73
*	*8va	*	*	*	*	*	*	*
2BB- 2BBB-/	2fff 2ddd-X 2gg 2ff\	f	2.ff\	cze-	.	1ryy	.	.
2D-X 2DD-X/	4ggg 4bb- 4gg\	.	.	.	.	.	.	.
.	4eeen 4gg 4een/	.	4een\	-muż	.	.	.	.
=74	=74	=74	=74	=74	=74	=74	=74	=74
4GG/	2ddd-X 2ff 2dd-X/	.	2dd-X\	Pro-	.	1ryy	.	.
8AA-X^^</L	.	.	.	.	.	.	.	.
8BB-^^</J	.	.	.	.	.	.	.	.
*	*X8va	*	*	*	*	*	*	*
8EEn^^</L	4gg 4cc 4g\	.	4g/	-kul	.	.	.	.
8C^^</J	.	.	.	.	.	.	.	.
8r	8r	.	8r	.	.	.	.	.
!	!	!	!	!	!LO:DY:a	!	!	!
8C/	8g 8en 8c/	p	8g/	ten	p	.	.	.
=75	=75	=75	=75	=75	=75	=75	=75	=75
4..F\	8.a-XL 8.f 8.c/	.	(<4..a-X/	Pre-	.	1ryy	.	.
.	(48c/LL	.	.	.	.	.	.	.
.	48d/	.	.	.	.	.	.	.
.	48en/JJJ	.	.	.	.	.	.	.
.	8.f/L)	.	.	.	.	.	.	.
(<16BB-/	(16b-Jk 16f 16d-X/	.	16b-\)	.	.	.	.	.
4..F\)	8.a-L 8.f 8.c/)	.	4..a-/	-tor	.	.	.	.
.	(48c/LL	.	.	.	.	.	.	.
.	48d-/	.	.	.	.	.	.	.
.	48e/JJJ	.	.	.	.	.	.	.
.	8.f/L)	.	.	.	.	.	.	.
16C/	16gJk 16e 16c/	.	16g/	tak	.	.	.	.
=76	=76	=76	=76	=76	=76	=76	=76	=76
!	!LO:N:vis=4.	!	!	!	!	!	!	!
8.F\L	(4..a-X 4..f (4..c/	.	(<4..a-X/	har-	.	1ryy	.	.
*Xtuplet	*	*	*	*	*	*	*	*
(48B-\LL	.	.	.	.	.	.	.	.
48A-X\	.	.	.	.	.	.	.	.
48G\JJJ	.	.	.	.	.	.	.	.
8.F\L	.	.	.	.	.	.	.	.
16C\Jk)	16cc 16g 16e-X/))	.	16cc\)	.	.	.	.	.
4C/	4cc 4g 4e-/	.	4cc\	-dy.	.	.	.	.
8.r	8.r	.	4r	.	.	.	.	.
16GG#X/	16d#X 16B#X 16G#X/	.	.	.	.	.	.	.
=77||	=77||	=77||	=77||	=77||	=77||	=77||	=77||	=77||
*k[]	*k[]	*	*k[]	*	*	*k[]	*	*
!	!LO:N:vis=4.	!	!	!	!LO:DY:a	!	!	!
4..C#X/	4..e 4..c#X 4..G#X/	.	(4cc#X\	Mie-	mf	1ryy	.	.
.	.	.	4dd#X\)	.	.	.	.	.
16GG#X/	16d#X 16B#X 16G#X/	.	.	.	.	.	.	.
4C#/	4e 4c# 4G#/	.	4ee\	-rzy	.	.	.	.
4r	4r	.	4e/	go	.	.	.	.
!!LO:LB:g=original
=78	=78	=78	=78	=78	=78	=78	=78	=78
4r	4r	mf	2dd#X\	o-	.	1ryy	.	.
*	*tuplet	*	*	*	*	*	*	*
4C#X/	(12F##X/L	.	.	.	.	.	.	.
.	12G#X/	.	.	.	.	.	.	.
.	12c#X/J	.	.	.	.	.	.	.
4BB/	12e/L	.	4cc#X\	-kiem	.	.	.	.
.	12c#/	.	.	.	.	.	.	.
.	12g#X/J	.	.	.	.	.	.	.
!	!	!	!	!	!LO:DY:a	!	!	!
4AA/	12e/L	.	4cc#\	za-	f	.	.	.
.	12gn/	.	.	.	.	.	.	.
.	12cc#X/J)	.	.	.	.	.	.	.
=79	=79	=79	=79	=79	=79	=79	=79	=79
4..Dn\	4..ddn 4..fn 4..dn/	.	(4ddn\	-wiś-	.	1ryy	.	.
.	.	.	4ee\)	.	.	.	.	.
16AA/	16e 16c#X 16A/	.	.	.	.	.	.	.
4D\	4f 4d 4A/	.	4ff\	-ci	.	.	.	.
4r	4r	.	4f/	i	.	.	.	.
=80	=80	=80	=80	=80	=80	=80	=80	=80
*	*Xbrackettup	*	*	*	*	*	*	*
4D 4DD/	12r	.	2ee\	gnie-	.	1ryy	.	.
.	(12d/L	.	.	.	.	.	.	.
.	12e/J	.	.	.	.	.	.	.
4C 4CC/	12f/L	.	.	.	.	.	.	.
.	12a/	<	.	.	.	.	.	.
.	12dd/J	.	.	.	.	.	.	.
*	*Xtuplet	*	*	*	*	*	*	*
2BB 2BBB/	12dd#X/L	.	2dd#X\	-wu...	.	.	.	.
.	12f#X/	.	.	.	.	.	.	.
.	12g/J	.	.	.	.	.	.	.
.	12a/L	.	.	.	.	.	.	.
.	12b/	.	.	.	.	.	.	.
.	12dd#/J)	.	.	.	.	.	.	.
*	*	*	*	*	*	*clefG2	*	*
=81||	=81||	=81||	=81||	=81||	=81||	=81||	=81||	=81||
!	!LO:TX:a:B:t=Allegro assai	!	!	!	!	!LO:TX:a:B:rj:t=Livia.	!	!LO:DY:a:rj
4BB-X 4BBB-X/	4gg-X 4ee-X 4b-X 4g-X\	sfz	1ryy	.	.	2gg-X\	Milcz!	f
!	!	!	!	!	!	!LO:TX:a:t=(Selene cofa się nieco\nprzed groźnym wzrokiem Livii,\nktóra objawia wzburzenie silne)	!	!
4r	16r	.	.	.	.	.	.	.
.	16d/LL	f	.	.	.	.	.	.
.	16e-X/	.	.	.	.	.	.	.
.	16B-X/JJ	.	.	.	.	.	.	.
2r	16c/LL	.	.	.	.	2r	.	.
.	16d/	.	.	.	.	.	.	.
.	16f/	.	.	.	.	.	.	.
.	16e-/JJ	.	.	.	.	.	.	.
.	16d/LL	.	.	.	.	.	.	.
.	16e-/	.	.	.	.	.	.	.
.	16g-X/	.	.	.	.	.	.	.
.	16a-X/JJ	.	.	.	.	.	.	.
!!LO:PB:g=original
=82	=82	=82	=82	=82	=82	=82	=82	=82
4r	16cc-X\LL	.	1ryy	.	.	1ryy	.	.
.	16b-X\	.	.	.	.	.	.	.
.	16ee-X\	.	.	.	.	.	.	.
.	16ff\JJ	.	.	.	.	.	.	.
8.r	8.gg-X\L	.	.	.	.	.	.	.
16G-X 16GG-X/	16bb-XJk 16ee- 16b-\	.	.	.	.	.	.	.
8.G-L 8.GG-/	8.bb-L 8.ee- 8.b-\	.	.	.	.	.	.	.
16FJk 16FF/	16aanJk 16ee- 16an\	.	.	.	.	.	.	.
8.G-L 8.GG-/	8.bb-L 8.ee- 8.b-\	.	.	.	.	.	.	.
16E-XJk 16EE-X/	16ddd-XJk 16bb- 16gg- 16dd-X\	.	.	.	.	.	.	.
=83	=83	=83	=83	=83	=83	=83	=83	=83
8.E-XL 8.EE-X/	8.ddd-XL 8.bb-X 8.gg-X 8.dd-X\	.	1ryy	.	.	1ryy	.	.
16A-XJk 16AA-X/	16ccc-XJk 16aa-X 16ee-X 16cc-X\	.	.	.	.	.	.	.
8A- 8AA-^^\	8ccc- 8aa- 8ee- 8cc-\	.	.	.	.	.	.	.
8r	16r	.	.	.	.	.	.	.
.	16gn/	.	.	.	.	.	.	.
2r	16a-X\LL	.	.	.	.	.	.	.
.	16b-X\	.	.	.	.	.	.	.
.	16dd-\	.	.	.	.	.	.	.
.	16cc-\JJ	.	.	.	.	.	.	.
.	16ee-\LL	.	.	.	.	.	.	.
.	16ff\	.	.	.	.	.	.	.
.	16ggn\	.	.	.	.	.	.	.
.	16aa-\JJ	.	.	.	.	.	.	.
=84	=84	=84	=84	=84	=84	=84	=84	=84
8.r	8bbn\L	.	1ryy	.	.	1ryy	.	.
.	16r	.	.	.	.	.	.	.
16G#X 16GG#X/	16eeenJk 16bb 16een\	.	.	.	.	.	.	.
8.G#L 8.GG#/	8.eeenL 8.bb 8.een\	.	.	.	.	.	.	.
16AnJk 16AAn/	16ddd#XJk 16bb 16ff#X 16dd#X\	.	.	.	.	.	.	.
8.G#L 8.GG#/	8.eeeL 8.bb 8.gg#X 8.ee\	.	.	.	.	.	.	.
16C#XJk 16CC#X/	16bbJk 16gg# 16ee 16b\	.	.	.	.	.	.	.
8.C#L 8.CC#/	8.bbL 8.gg# 8.ee 8.b\	.	.	.	.	.	.	.
16F#XJk 16FF#X/	16aaJk 16gg# 16ee 16a\	.	.	.	.	.	.	.
!!LO:LB:g=original
=85	=85	=85	=85	=85	=85	=85	=85	=85
8F#X 8FF#X^^/	8aa 8ff#X 8dd#X 8a^^\	.	1ryy	.	.	1r	.	.
8r	8r	.	.	.	.	.	.	.
4r	(16g#X/LL	.	.	.	.	.	.	.
.	16a/	.	.	.	.	.	.	.
.	16g#/	.	.	.	.	.	.	.
.	16a/JJ)	.	.	.	.	.	.	.
8D#X 8DD#X^^/	8aa 8ff# 8cc#X 8a\	.	.	.	.	.	.	.
8r	8r	.	.	.	.	.	.	.
4r	(16b#X\LL	.	.	.	.	.	.	.
.	16cc#\	.	.	.	.	.	.	.
.	16bn\	.	.	.	.	.	.	.
.	16cc#\JJ)	.	.	.	.	.	.	.
=86	=86	=86	=86	=86	=86	=86	=86	=86
!	!	!	!	!	!	!LO:TX:a:B:t=Livia.	!	!
4BB#X 4BBB#X^^/	4gg#X 4ff#X 4dd#X 4g#X^^\	.	1ryy	.	.	2r	.	.
4r	4r	.	.	.	.	.	.	.
!	!	!	!	!	!	!	!	!LO:DY:a:rj
2r	2r	.	.	.	.	[2gg#X\	Nie!	f
=87||	=87||	=87||	=87||	=87||	=87||	=87||	=87||	=87||
!!!OMD: Meno Allegro.
!	!LO:TX:a:B:t=Meno Allegro.	!	!	!	!	!	!	!
1r	2r	.	1ryy	.	.	4gg#\]	.	.
.	.	.	.	.	.	4r	.	.
.	(8f#X/L	p	.	.	.	2r	.	.
.	8g#X/	.	.	.	.	.	.	.
.	8f#/	.	.	.	.	.	.	.
.	8g#/J)	.	.	.	.	.	.	.
=88	=88	=88	=88	=88	=88	=88	=88	=88
2Dn\	(>2a 2f#X 2dn 2A/	.	1ryy	.	.	1r	.	.
2Gn 2GGn/	2b 2gn 2d 2B/	.	.	.	.	.	.	.
=89	=89	=89	=89	=89	=89	=89	=89	=89
2D#X 2DD#X/	2b#X 2g#X 2f#X 2B#X/	.	1r	.	.	1r	.	.
2C#X 2CC#X/	2ee 2a 2f# 2e/)	.	.	.	.	.	.	.
=90	=90	=90	=90	=90	=90	=90	=90	=90
!	!	!	!	!	!	!LO:TX:a:t=(łagodniej)	!	!
2BB#X 2BBB#X/	2g#X 2f#X 2d#X 2G#X/	.	1ryy	.	.	2r	.	.
2r	2r	.	.	.	.	4r	.	.
!	!	!	!	!	!	!	!	!LO:DY:a
.	.	.	.	.	.	4g#X/	Mów	p
=91	=91	=91	=91	=91	=91	=91	=91	=91
1r	1r	.	1ryy	.	.	1ee	da-	.
!!LO:LB:g=original
=92||	=92||	=92||	=92||	=92||	=92||	=92||	=92||	=92||
2r	8.r	.	2.ryy	.	.	4dd#X\	-lej.	.
.	(16Bn/	.	.	.	.	.	.	.
.	8B#X/L)	.	.	.	.	4r	.	.
.	16r	.	.	.	.	.	.	.
.	(16e/Jk	.	.	.	.	.	.	.
!	!	!	!LO:TX:a:B:t=Selene.	!	!	!	!	!
4r	8d#X/L)	.	.	.	.	4r	.	.
.	16r	.	.	.	.	.	.	.
.	(16a/Jk	.	.	.	.	.	.	.
*	*	*	*clefG2	*	*	*	*	*
!	!	!	!	!	!LO:DY:a	!	!	!
4B#X 4G#X\	8g#X/L)	.	4b#X\	Wszak	p	4ryy	.	.
.	16r	.	.	.	.	.	.	.
.	(16f#X/Jk	.	.	.	.	.	.	.
=93	=93	=93	=93	=93	=93	=93	=93	=93
4c#X 4C#X\	8e/L)	.	(4cc#X\	na-	.	1ryy	.	.
.	16r	.	.	.	.	.	.	.
.	(16bn/Jk	.	.	.	.	.	.	.
4r	8a/L)	.	4dd#X\)	.	.	.	.	.
.	16r	.	.	.	.	.	.	.
.	(<16g#X/Jk	.	.	.	.	.	.	.
4r	8cc#X\)	.	4ee\	-wet	.	.	.	.
.	8r	.	.	.	.	.	.	.
*tuplet	*tuplet	*	*	*	*	*	*	*
!LO:TUP:a	!	!	!	!	!LO:DY:a	!	!	!
12G#XL 12E'\	12eL 12c#X'/	.	4e/	po-	mf	.	.	.
12G# 12E'\	12e 12c#'/	.	.	.	.	.	.	.
12G#J 12E'\	12eJ 12c#'/	.	.	.	.	.	.	.
=94	=94	=94	=94	=94	=94	=94	=94	=94
4E 4EE/	8g#XL 8c#X 8G/	.	4dd#X\	-gar-	.	1ryy	.	.
.	16r	.	.	.	.	.	.	.
.	(16B#X/Jk	.	.	.	.	.	.	.
4r	8c#X/L)	.	8.cc#X\	-dy	.	.	.	.
.	16r	.	.	.	.	.	.	.
.	(16d#X/Jk	.	16b#X\	Pre-	.	.	.	.
2r	8e/)	.	4cc#\	-to-	.	.	.	.
.	8r	.	.	.	.	.	.	.
*	*tremolo	*	*	*	*	*	*	*
!	!LO:TX:a:t=P:problem:złe wyświetlanie wartości rytmicznej tremolo	!	!	!	!	!	!	!
!	!LO:N:TREM:vis=4.	!	!	!	!	!	!	!
.	12g#L 12e/	.	4g#X/	-ra	.	.	.	.
.	12g# 12e/	.	.	.	.	.	.	.
.	12g#J 12e/	.	.	.	.	.	.	.
*	*Xtremolo	*	*	*	*	*	*	*
!!LO:LB:g=original
=95	=95	=95	=95	=95	=95	=95	=95	=95
2C#/	8.b- 4.g# 4.e/L	sf	2bn\	Nie	.	1ryy	.	.
.	(<16d#/Jk	.	.	.	.	.	.	.
!	!LO:TUP:b	!	!	!	!	!	!	!
.	12e/L	.	.	.	.	.	.	.
.	12g#/	.	.	.	.	.	.	.
.	12b/J)	.	.	.	.	.	.	.
4F#\	8.a 8.f 8.e/L	.	4.a/	wart	.	.	.	.
.	(<16c#/Jk	.	.	.	.	.	.	.
!	!LO:TUP:b	!	!	!	!	!	!	!
4FF#/	12dn/L	.	.	.	.	.	.	.
.	12f/	.	.	.	.	.	.	.
.	.	.	8ddn\	Grek	.	.	.	.
.	12a/J)	.	.	.	.	.	.	.
=96	=96	=96	=96	=96	=96	=96	=96	=96
2Fn 2FFn/	8.ddn 8.a 8.e-/L	.	2dd\	słyn-	.	1ryy	.	.
.	(16d/Jk	.	.	.	.	.	.	.
!	!LO:TUP:b	!	!	!	!	!	!	!
.	12e-/L	.	.	.	.	.	.	.
.	12a/	.	.	.	.	.	.	.
.	12dd/J)	.	.	.	.	.	.	.
!	!LO:TUP:a	!	!	!	!	!	!	!
2E- 2EE-/	(12bn\L	.	4.bn\	-ny	.	.	.	.
.	12dd\	.	.	.	.	.	.	.
.	12gn\J	.	.	.	.	.	.	.
*	*Xtuplet	*	*	*	*	*	*	*
.	12c/L	.	.	.	.	.	.	.
.	12g/	.	.	.	.	.	.	.
.	.	.	8cc\	ze	.	.	.	.
.	12f/J)	.	.	.	.	.	.	.
=97	=97	=97	=97	=97	=97	=97	=97	=97
4D 4DD/	(12b-/L	.	1gg	śpie-	.	1ryy	.	.
.	12f/	.	.	.	.	.	.	.
.	12g/J	.	.	.	.	.	.	.
*Xtuplet	*	*	*	*	*	*	*	*
(12A\L	12a\L	.	.	.	.	.	.	.
12B-\	12b-\	.	.	.	.	.	.	.
12c\J	12cc\J	.	.	.	.	.	.	.
12d\L	12dd\L	.	.	.	.	.	.	.
12A\	12a\	.	.	.	.	.	.	.
12c\J	12cc\J	.	.	.	.	.	.	.
12B-\L	12b-\L	.	.	.	.	.	.	.
12d\	12dd\	.	.	.	.	.	.	.
12e-\J)	12ee-\J)	.	.	.	.	.	.	.
!!LO:LB:g=original
=98	=98	=98	=98	=98	=98	=98	=98	=98
4d\	4ff 4b-X 4f\	.	4ff\	-wu.	.	1r	.	.
*tuplet	*tuplet	*	*	*	*	*	*	*
!LO:TUP:a:problem:klamra łukowa	!LO:TUP:a:problem:klamra łukowa	!	!	!	!	!	!	!
12A\L	12a\L	.	4r	.	.	.	.	.
12B-X\	12b-\	.	.	.	.	.	.	.
12d\J	12dd\J	.	.	.	.	.	.	.
8F\	8f/	.	4r	.	.	.	.	.
8r	8r	.	.	.	.	.	.	.
!	!	!	!	!	!LO:DY:a	!	!	!
4r	4ff 4f^^\	.	4ff\	Lecz	f	.	.	.
=99	=99	=99	=99	=99	=99	=99	=99	=99
4BB-X/	2.ff 2.dd-X 2.g 2.f\	f	2.ff\	Pro-	.	1r	.	.
8GG^/L	.	.	.	.	.	.	.	.
8AA-X^/J	.	.	.	.	.	.	.	.
4BB-^/	.	.	.	.	.	.	.	.
4D-X^\	4een 4g 4en/	.	4ee\	-kul	.	.	.	.
=100	=100	=100	=100	=100	=100	=100	=100	=100
!	!	!	!	!	!	!LO:N:vis=2	!	!
4GG^/	2dd-X 2e 2d-X/	.	2dd-X\	czu-	.	2.r	.	.
8AA-X^/L	.	.	.	.	.	.	.	.
8BB-X^/J	.	.	.	.	.	.	.	.
!	!	!	!	!	!	!LO:TX:a:B:t=Livia.	!	!
4EEn/	4g 4c 4G/	.	4g/	-je..	.	.	.	.
4r	4r	.	4r	.	.	8r	.	.
!	!	!	!	!	!	!	!	!LO:DY:a
.	.	.	.	.	.	8ee\	Milcz	f
=101	=101	=101	=101	=101	=101	=101	=101	=101
4r	4r	.	1r	.	.	4gg\	już!	.
8BBn 8BBBn/	8gg 8ee 8bn 8g\	sfz	.	.	.	8r	.	.
8r	8r	.	.	.	.	16ee\	a-	.
.	.	.	.	.	.	16ff#X\	-ni	.
4r	4r	.	.	.	.	8gg\	sło-	.
.	.	.	.	.	.	8a#X/	-wa!	.
8FF#X 8FFF#X/	8gg 8ee 8cc#X 8a#X 8g\	.	.	.	.	4r;	.	.
8r;	8r;	.	.	.	.	.	.	.
=102	=102	=102	=102	=102	=102	=102	=102	=102
*	*^	*	*	*	*	*	*	*
*	*	*^	*	*	*	*	*	*	*
1r	2r	2rB	1g 1e	f	1r	.	.	1r	.	.
.	[2ccn^^/	[2cn\	.	.	.	.	.	.	.	.
*	*v	*v	*v	*	*	*	*	*	*	*
=103	=103	=103	=103	=103	=103	=103	=103	=103
2.F 2.FF^^/	1cc] 1g#X 1e 1c]	.	1r	.	.	1r	.	.
4E 4EE/	.	.	.	.	.	.	.	.
!!LO:PB:g=original
=104	=104	=104	=104	=104	=104	=104	=104	=104
1D 1DD	1cc 1a-X 1fn 1c	>	1ryy	.	.	2r	.	.
!	!	!	!	!	!	!	!	!LO:DY:a:rj
.	.	.	.	.	.	4ff\	Mo-	f
.	.	.	.	.	.	8a-X/	-ją	.
.	.	]	.	.	.	8cc\	do-	.
=105	=105	=105	=105	=105	=105	=105	=105	=105
2G 2GG/	8bnL 8g 8f 8B/	p	1ryy	.	.	2bn\	-bro-	.
.	16r	.	.	.	.	.	.	.
.	(16d/Jk	.	.	.	.	.	.	.
.	8e-X/L)	.	.	.	.	.	.	.
.	16r	.	.	.	.	.	.	.
.	(16d/Jk	.	.	.	.	.	.	.
2r	8g/L)	.	.	.	.	2g/	-cią	.
.	16r	.	.	.	.	.	.	.
.	(16f/Jk	.	.	.	.	.	.	.
.	8e-/L)	.	.	.	.	.	.	.
.	16r	.	.	.	.	.	.	.
.	(16d/Jk	.	.	.	.	.	.	.
=106	=106	=106	=106	=106	=106	=106	=106	=106
[2C [2CC/	8e-XL 8c/)	.	1ryy	.	.	4.ee-X\	zbyt-	.
.	16r	.	.	.	.	.	.	.
.	(16G/Jk	.	.	.	.	.	.	.
.	4g 4e-/)	.	.	.	.	.	.	.
.	.	.	.	.	.	8cc\	-nio	.
4C] 4CC/]	8fL 8d/	.	.	.	.	4.b\	o-	.
.	16r	.	.	.	.	.	.	.
.	(16B/Jk	.	.	.	.	.	.	.
4r	8bL 8f/)	.	.	.	.	.	.	.
.	16r	.	.	.	.	8gg\	-śmie-	.
.	16dd/Jk	.	.	.	.	.	.	.
=107	=107	=107	=107	=107	=107	=107	=107	=107
(8qCC/	.	.	.	.	.	.	.	.
[2C^^/)	4dd-X 4b-X 4f^^/	.	1ryy	.	.	4dd-X\	-lo-	.
.	8ccL 8g 8e/	>	.	.	.	4cc\	-na.	.
.	16r	.	.	.	.	.	.	.
.	(16dn/Jk	.	.	.	.	.	.	.
8C/L]	8e/L)	.	.	.	.	2r	.	.
(8BB-X/	16r	.	.	.	.	.	.	.
.	(<16g/Jk	]	.	.	.	.	.	.
8AA-X/	8cc\L)	.	.	.	.	.	.	.
8GG/J)	16r	.	.	.	.	.	.	.
.	16ee\Jk	.	.	.	.	.	.	.
!!LO:LB:g=original
=108	=108	=108	=108	=108	=108	=108	=108	=108
*	*^	*	*	*	*	*	*	*
!	!	!	!	!	!	!	!	!	!LO:DY:a
(2FF/	(4ff/	2.cc 2.a-X\	p	1ryy	.	.	2.cc\	Mó-	p
.	4gg/	.	.	.	.	.	.	.	<
8EE/L	4aa/	.	.	.	.	.	.	.	.
8FF/	.	.	.	.	.	.	.	.	[
8AA-X/	4an/)	4f\	.	.	.	.	8.ff\	-wisz	>
8BBn/J)	.	.	.	.	.	.	.	.	.
.	.	.	.	.	.	.	16cc\	za	.
=109	=109	=109	=109	=109	=109	=109	=109	=109	=109
(8C\L	2gg 2cc/	(4b-X\	.	1ryy	.	.	4b-X\	wie-	]
8E\	.	.	.	.	.	.	.	.	.
8F\	.	4a-X\)	.	.	.	.	4a-X/	-le!	.
8G\J)	.	.	.	.	.	.	.	.	.
4A-X\	4ff 4cc 4f\	2ryy	.	.	.	.	2r	.	.
!	!LO:TUP:a:problem:klamra łukowa	!	!	!	!	!	!	!	!
4r	12ee\L	.	f	.	.	.	.	.	.
.	12ff\	.	.	.	.	.	.	.	.
.	12gg\J	.	.	.	.	.	.	.	.
*	*v	*v	*	*	*	*	*	*	*
=110	=110	=110	=110	=110	=110	=110	=110	=110
[2c-X^^\	2aa-X 2ee-X 2a-X^^\	.	1ryy	.	.	1r	.	.
4c-\]	4ee- 4a- 4e-X/	.	.	.	.	.	.	.
4r	(8cc-X\L	.	.	.	.	.	.	.
.	8b-X\J)	.	.	.	.	.	.	.
=111	=111	=111	=111	=111	=111	=111	=111	=111
2C-X^^/	[1a-X [>1f-X [1A-X	.	1ryy	.	.	1aa-X	O-	.
(4AA-X/	.	.	.	.	.	.	.	.
8GG-X/L	.	.	.	.	.	.	.	.
8FF-X/J)	.	.	.	.	.	.	.	.
=112	=112	=112	=112	=112	=112	=112	=112	=112
2CC-X/	2a-] 2f-] 2A-/]	.	1ryy	.	.	2a-X/	-dejdź!	.
2r	2r	.	.	.	.	2r	.	.
=113	=113	=113	=113	=113	=113	=113	=113	=113
1r	(4a-X/	p	1ryy	.	.	1r	.	.
.	4b-X\	.	.	.	.	.	.	.
.	4cc-X\	.	.	.	.	.	.	.
.	4c-X/)	.	.	.	.	.	.	.
!!LO:LB:g=original
=114	=114	=114	=114	=114	=114	=114	=114	=114
*	*^	*	*	*	*	*	*	*
[1Fn [1FFn	(2b-X/	[1e-X [1c-X	.	1ryy	.	.	1r	.	.
.	[2a-X/)	.	.	.	.	.	.	.	.
=115	=115	=115	=115	=115	=115	=115	=115	=115	=115
4F] 4FF/]	4a-/]	4e-] 4c-\]	.	1ryy	.	.	1r	.	.
4r	(4b-X/	2.ryy	.	.	.	.	.	.	.
2r	4cc-X/	.	.	.	.	.	.	.	.
.	4c-X/)	.	.	.	.	.	.	.	.
=116	=116	=116	=116	=116	=116	=116	=116	=116	=116
[<1BB-X [1BBB-X	2g-X/	[1d [1c-X< [>1A-X<	.	1ryy	.	.	1r	.	.
.	[2f/	.	.	.	.	.	.	.	.
=117	=117	=117	=117	=117	=117	=117	=117	=117	=117
!	!	!	!	!	!	!	!	!	!LO:DY:a
4BB-] 4BBB-\]	4ryy	4f] 4d] 4c-<] 4A-</]	.	1ryy	.	.	2dd\	tak,	p
4r	4r	2.ryy	.	.	.	.	.	.	.
2r	2r	.	.	.	.	.	4r	.	.
.	.	.	.	.	.	.	4ff\	bądź	.
*	*v	*v	*	*	*	*	*	*	*
=118	=118	=118	=118	=118	=118	=118	=118	=118
1r	(4d/	.	1ryy	.	.	2ff\	zdro-	.
.	4e-X/	.	.	.	.	.	.	.
.	4f/	.	.	.	.	4a-X/	-wa!	.
.	4F/)	.	.	.	.	4r	.	.
=119	=119	=119	=119	=119	=119	=119	=119	=119
1r	4r	.	1ryy	.	.	1r	.	.
.	(12d/L	f	.	.	.	.	.	.
.	12a-X/	.	.	.	.	.	.	.
.	12d/J	.	.	.	.	.	.	.
.	12e-X/L	.	.	.	.	.	.	.
.	12g-X/	.	.	.	.	.	.	.
.	12e-/J	.	.	.	.	.	.	.
.	12A-X/L	.	.	.	.	.	.	.
.	12f/	.	.	.	.	.	.	.
.	12A-/J)	.	.	.	.	.	.	.
!!LO:LB:g=original
=120	=120	=120	=120	=120	=120	=120	=120	=120
1r	4r	.	1ryy	.	.	1r	.	.
*	*Xtuplet	*	*	*	*	*	*	*
.	(12d/L	p	.	.	.	.	.	.
.	12a-X/	.	.	.	.	.	.	.
.	12d/J	.	.	.	.	.	.	.
.	12e-X/L	.	.	.	.	.	.	.
.	12g-X/	.	.	.	.	.	.	.
.	12e-/J	.	.	.	.	.	.	.
.	12A-X/L	.	.	.	.	.	.	.
.	12f/	.	.	.	.	.	.	.
.	12A-/J)	.	.	.	.	.	.	.
=121	=121	=121	=121	=121	=121	=121	=121	=121
!	!	!	!	!	!	!	!	!LO:DY:a
1r	4r	.	1ryy	.	.	2.cc-X\	Idź,	p
.	(12d/L	.	.	.	.	.	.	.
.	12a-X/	.	.	.	.	.	.	.
.	12d/J	.	.	.	.	.	.	.
.	12e-X/L	.	.	.	.	.	.	.
.	12g-X/	.	.	.	.	.	.	.
.	12e-/J	.	.	.	.	.	.	.
.	12A-X/L	.	.	.	.	4r	.	.
.	12f/	.	.	.	.	.	.	.
.	12A-/J)	.	.	.	.	.	.	.
=122	=122	=122	=122	=122	=122	=122	=122	=122
1r	4r	.	1ryy	.	.	1r	.	.
.	(12d/L	.	.	.	.	.	.	.
.	12a-X/	.	.	.	.	.	.	.
.	12d/J	.	.	.	.	.	.	.
.	8e-X/L	.	.	.	.	.	.	.
.	8g-X/	.	.	.	.	.	.	.
.	8e-/	.	.	.	.	.	.	.
.	8A-X/J	.	.	.	.	.	.	.
=123	=123	=123	=123	=123	=123	=123	=123	=123
!	!	!	!	!	!	!LO:TX:a:t=(wahająco)	!	!
1r	8f/L	.	1ryy	.	.	2r	.	.
.	8A-X/J)	.	.	.	.	.	.	.
.	4r	.	.	.	.	.	.	.
!	!	!	!	!	!	!	!	!LO:DY:a
.	2r	.	.	.	.	4.a-X/	a-	p
.	.	.	.	.	.	8b-X\	-le	.
!!LO:LB:g=original
=124	=124	=124	=124	=124	=124	=124	=124	=124
1r	4r	.	1ryy	.	.	4cc-X\	z lut-	.
.	(4d/	pp	.	.	.	4a-X/	-nią	.
.	4a-X/	.	.	.	.	2r	.	.
.	4d/	.	.	.	.	.	.	.
=125	=125	=125	=125	=125	=125	=125	=125	=125
1r	4e-X/	.	1ryy	.	.	2.cc-X\	przy-	.
.	4g-X/	.	.	.	.	.	.	.
.	4e-/)	.	.	.	.	.	.	.
.	4r	.	.	.	.	4b-X\	-ślij	.
=126	=126	=126	=126	=126	=126	=126	=126	=126
1r	4r	.	1ryy	.	.	4g-X/	tu	.
.	(4B-X/	.	.	.	.	4r	.	.
.	4e-X/)	.	.	.	.	4r	.	.
!	!	!	!	!	!	!	!	!LO:DY:a
.	4r	.	.	.	.	4b-X\	Ly-	pp
=127	=127	=127	=127	=127	=127	=127	=127	=127
2r	2r	.	1ryy	.	.	[1ee-X	-ko-	.
2G-X 2AA-X\	2b-X 2g-X 2e-X 2c-X/	pp	.	.	.	.	.	.
=128	=128	=128	=128	=128	=128	=128	=128	=128
*	*^	*	*	*	*	*	*	*
1AA-X 1DD-X	(2.b-X/	1g-X 1e-X 1c-X	.	1ryy	.	.	1ee-]	.	.
.	4a-X/)	.	.	.	.	.	.	.	.
*	*v	*v	*	*	*	*	*	*	*
=129	=129	=129	=129	=129	=129	=129	=129	=129
[<1D-X [1DD-X	[1f [1d-X [1c-X [>1F<	.	1ryy	.	.	[1dd-X	-na!	.
=130	=130	=130	=130	=130	=130	=130	=130	=130
4D-] 4DD-\]	4f] 4d-] 4c-] 4F</]	.	1ryy	.	.	4dd-\]	.	.
4r	4r	.	.	.	.	4r	.	.
2r	2r	.	.	.	.	2r	.	.
==	==	==	==	==	==	==	==	==
*-	*-	*-	*-	*-	*-	*-	*-	*-
!!!system-decoration: s1,s2{(s3,s4)}
!!!RDF**kern: > = above
!!!RDF**kern: < = below
!!!ENC: Filip Voros
!!!END: 2023-07-13
!!!ENC: Marta Lawrence
!!!END: 2023-07-22
!!!YEC: Copyright 2022 Narodowy Instytut Fryderyka Chopina (https://polishscores.org)
!!!YEM: License CC-BY-4.0 (https://creativecommons.org/licenses/by/4.0)
